!!!!SEGMENT: pl-sa--58-a-i-58--001-005_lechleitner-ferdinand-simon--vesperae-in-f-laudate-pueri.krn
!!!cenid: 17xx:415
!!!COM: Lechleitner, Ferdinand Simon
!!!COM-rismid: pe30001903
!!!CDT: ~1700-~1800
!!!CNT:
!!!OPR: Vesperae in F
!!!OTL: Laudate pueri
!!!OMV: 005
!!!PDT: 1726
!!!AGN: Sacred; Vespers
!!!SMS-siglum: PL-SA
!!!SMS-shelfmark: 58/A I 58
!!!SMS-shelfwork: 001-005 M
!!!SMS-variant: Violino 1mo.: PL-SA 58/A I 58:55-56; Organo: PL-SA 58/A I 58:87-88
!!!SMS-altvar: Violino 1mo.: PL-SA 58/A I 58:96-97; Organo: PL-SA 58/A I 58:105-106
!!!NIFC-rismid: 1001068282
!!!URL-scan: http://bc.bdsandomierz.pl/dlibra/publication/1347/edition/1315/content
!!!ONB-nifc: UWAGA: części Vespere: Domine ad adiuvandum, Dixit dominus, Confitebor, Beatus vir, Laudate pueri, Laudate Dominum, Magnificat
!!!ONB-nifc: alternatywne wersje vl I i org o 2> niżej
**kern	**fba	**dynam	**kern	**dynam	**kern	**dynam	**kern	**text	**dynam	**kern	**text	**dynam	**kern	**text	**dynam	**kern	**text	**dynam	**kern	**dynam	**kern	**dynam
*part9	*	*part9	*part8	*part8	*part7	*part7	*part6	*part6	*part6	*part5	*part5	*part5	*part4	*part4	*part4	*part3	*part3	*part3	*part2	*part2	*part1	*part1
*	*	*	*group3	*	*group3	*	*group2	*	*	*group2	*	*	*group2	*	*	*group2	*	*	*group1	*	*group1	*
*staff9	*	*	*staff8	*	*staff7	*	*staff6	*staff6	*	*staff5	*staff5	*	*staff4	*staff4	*	*staff3	*staff3	*	*staff2	*	*staff1	*
*I"Organo	*	*	*I"Violino 2do.	*	*I"Violino 1mo.	*	*I"Baſsus	*	*	*I"Tenor	*	*	*I"Altus.	*	*	*I"Cantus	*	*	*I"Lituo 2.do	*	*I"Lituo 1mo	*
*I'org.	*	*	*I'vl II	*	*I'vl I	*	*I'B	*	*	*I'T	*	*	*I'A	*	*	*I'C	*	*	*I'lituus II	*	*I'lituus I	*
*clefF4	*	*	*clefG2	*	*clefG2	*	*clefF4	*	*	*clefC4	*	*	*clefC3	*	*	*clefC1	*	*	*clefG2	*	*clefG2	*
*ITrd0c0	*	*	*	*	*	*	*	*	*	*	*	*	*	*	*	*	*	*	*ITrd4c7	*	*ITrd4c7	*
*k[b-]	*	*	*k[b-]	*	*k[b-]	*	*k[b-]	*	*	*k[b-]	*	*	*k[b-]	*	*	*k[b-]	*	*	*k[b-]	*	*k[b-]	*
*F:	*	*	*F:	*	*F:	*	*F:	*	*	*F:	*	*	*F:	*	*	*F:	*	*	*F:	*	*F:	*
*M4/4	*	*	*M4/4	*	*M4/4	*	*M4/4	*	*	*M4/4	*	*	*M4/4	*	*	*M4/4	*	*	*M4/4	*	*M4/4	*
*met(c)	*	*	*met(c|)	*	*met(c)	*	*met(c)	*	*	*met(c|)	*	*	*met(c|)	*	*	*met(C.)	*	*	*met(c|)	*	*met(c|)	*
=1	=1	=1	=1	=1	=1	=1	=1	=1	=1	=1	=1	=1	=1	=1	=1	=1	=1	=1	=1	=1	=1	=1
!LO:TX:b:t=Laudate pueri	!	!	!LO:TX:b:B:t=Laudate pueri	!	!LO:TX:b:B:t=Laudate pueri&colon;	!	!	!	!	!	!	!	!	!	!	!	!	!	!LO:TX:b:B:t=Laudate pueri	!	!LO:TX:b:B:t=Laudate Pueri	!
!LO:TX:a:t=Vivace Tutti	!	!	!LO:TX:a:B:t=Vivace Tutti	!	!LO:TX:a:B:t=Vivace.	!	!LO:TX:a:t=Vivace Tutti.	!	!	!	!	!	!	!	!	!LO:TX:a:t=Vivace Tutti	!	!	!LO:TX:a:B:t=Tutti	!	!LO:TX:a:B:t=Vivace Tutti	!
8r	.	.	8r	.	8r	.	8r	.	.	8r	.	.	8r	.	.	8r	.	.	8r	.	8r	.
*all\right	*	*	*	*	*	*	*	*	*	*	*	*	*	*	*	*	*	*	*	*	*	*
!	!	!	!	!	!	!	!LO:TX:b:t=P:problem:"L" przed kluczem	!	!	!LO:TX:b:t=P:problem:"L" przed kluczem	!	!	!LO:TX:b:t=P:problem:"L" przed kluczem	!	!	!LO:TX:b:t=P:problem:"L" przed kluczem	!	!	!	!	!	!
8F\L	.	.	8cc\L	.	8ff\L	.	8F\	Lau-	.	8c\	Lau-	.	8f\	Lau-	.	8a\	Lau-	.	8F/L	.	8f\	.
8F\	.	.	8cc\	.	8ff\	.	8F\	-da-	.	8c\	-da-	.	8f\	-da-	.	8a\	-da-	.	8A/	.	16f\LL	.
.	.	.	.	.	.	.	.	.	.	.	.	.	.	.	.	.	.	.	.	.	16g\	.
8F\J	.	.	8ff\J	.	8aa\J	.	8F\	-te	.	8c\	-te	.	8f\	-te	.	8a,<\	-te,	.	8c/J	.	16a\	.
.	.	.	.	.	.	.	.	.	.	.	.	.	.	.	.	.	.	.	.	.	16b-\JJ	.
8.E\L	6	.	8.cc\L	.	8.gg\L	.	8.E\	pu-	.	8.e\	pu-	.	8.g\	pu-	.	8.cc\	pu-	.	8.g\L	.	8.cc\L	.
16D\	.	.	16dd\Jk	.	16ff\Jk	.	16D\	-e-	.	16f\	-e-	.	16f\	-e-	.	16dd\	-e-	.	16f\Jk	.	16dd\Jk	.
8E\	.	.	8cc\L	.	16gg\LL	.	8E\	-ri	.	8e\	-ri	.	8g\	-ri	.	8cc\	-ri	.	8g\L	.	16cc\LL	.
.	.	.	.	.	16aa\	.	.	.	.	.	.	.	.	.	.	.	.	.	.	.	16dd\	.
8C\J	.	.	8cc\J	.	16ff\	.	8C/	lau-	.	8e\	Do-	.	8g\	lau-	.	8r	.	.	16a\L	.	16cc\	.
!	!	!	!	!	!	!	!	!	!	!	!	!	!	!	!	!	!	!	!	!	!LO:TX:a:t=x	!
.	.	.	.	.	16gg\JJ	.	.	.	.	.	.	.	.	.	.	.	.	.	16g\JJ	.	16b-\JJ	.
=2	=2	=2	=2	=2	=2	=2	=2	=2	=2	=2	=2	=2	=2	=2	=2	=2	=2	=2	=2	=2	=2	=2
!LO:TX:a:t=P:problem:mixed beam	!	!	!	!	!	!	!	!	!	!	!	!	!	!	!	!	!	!	!LO:TX:a:t=P:problem:mixed beam	!	!	!
8F\L	.	.	8cc\L	.	8aa\L	.	8F\	-da-	.	8f\	-mi-	.	8a\	-da-	.	8r	.	.	8f\L	.	8a\L	.
8FF/J	.	.	8a\J	.	8ff\J	.	8F\	-te	.	8c\	-num	.	8f\	-te	.	8cc\	lau-	.	8A/J	.	8f\J	.
8r	.	.	8r	.	8r	.	8r	.	.	4r	.	.	8r	.	.	16cc\LL	-da-	.	8r	.	8r	.
.	.	.	.	.	.	.	.	.	.	.	.	.	.	.	.	16dd\	.	.	.	.	.	.
8F\	.	.	8cc\	.	8ff\	.	8F\	lau-	.	.	.	.	8a\	lau-	.	16cc\	.	.	8A/	.	8f\	.
.	.	.	.	.	.	.	.	.	.	.	.	.	.	.	.	16dd\JJ	.	.	.	.	.	.
8E\L	6	.	8ee\L	.	8gg\L	.	8E\	-da-	.	8r	.	.	8g\	-da-	.	16cc\LL	.	.	8c/L	.	8g\L	.
.	.	.	.	.	.	.	.	.	.	.	.	.	.	.	.	16dd\	.	.	.	.	.	.
8C\J	.	.	8ee\J	.	8gg\J	.	8C/	-te	.	8c\	lau-	.	8e\	-te	.	16cc\	.	.	8c/J	.	8g\J	.
.	.	.	.	.	.	.	.	.	.	.	.	.	.	.	.	16dd\JJ	.	.	.	.	.	.
8r	.	.	8r	.	8r	.	8r	.	.	8c\	-da-	.	8r	.	.	8ee,<\	-te,	.	8r	.	8r	.
8F\	.	.	8ff\	.	8aa\	.	8F\	lau-	.	16c\	-te	.	8a\	lau-	.	8ff\	lau-	.	8c/	.	8a\	.
*	*	*	*	*	*	*	*	*	*	*	*ij	*	*	*	*	*	*	*	*	*	*	*
.	.	.	.	.	.	.	.	.	.	16c\	lau-	.	.	.	.	.	.	.	.	.	.	.
=3	=3	=3	=3	=3	=3	=3	=3	=3	=3	=3	=3	=3	=3	=3	=3	=3	=3	=3	=3	=3	=3	=3
!	!	!	!	!	!	!	!	!	!	!	!	!	!	!	!	!	!	!	!LO:TX:a:t=P:problem:mixed beam	!	!	!
8G\L	6	.	8ee\L	.	8gg\L	.	8G\	-da-	.	8B-\	-da-	.	8g\	-date	.	8ee\	-da-	.	8g\L	.	8g\L	.
8A\	6	.	8ff\J	.	8ff\J	.	8A\	-te	.	8c\	-te	.	8f\	.	.	8ff,<\	-te,	.	8c/J	.	8f\J	.
*	*	*	*	*	*	*	*	*	*	*	*Xij	*	*	*	*	*	*	*	*	*	*	*
8B-\	3	.	8dd\L	.	8ff\L	.	8B-\	pu-	.	8d\	pu-	.	8f\	pu-	.	8dd\	pu-	.	8F/L	.	8f\L	.
8A\J	6	.	16ee\L	.	16gg\L	.	16A\	-e-	.	16c\	-e-	.	16g\	-e-	.	16ee\	-e-	.	8c/J	.	16g\L	.
.	.	.	16ff\JJ	.	16aa\JJ	.	16B-\	-ri	.	16d\	-ri	.	16a\	-ri	.	16ff\	-ri	.	.	.	16a\JJ	.
!LO:TX:a:t=P:problem:mixed beam	!	!	!	!	!	!	!	!	!	!	!	!	!	!	!	!	!	!	!	!	!	!
8G\L	7	.	8ff\L	.	8bb-\L	.	8G\	Do-	.	8.B-\	Do-	.	8b-\	Do-	.	8.ffT\	Do-	.	8.g\L	.	16b-\LL	.
.	.	.	.	.	.	.	.	.	.	.	.	.	.	.	.	.	.	.	.	.	16a\	.
8GG/J	7	.	8ee\J	.	8gg\J	.	8c\	-mi-	.	.	.	.	8g\	-mi-	.	.	.	.	.	.	16b-\	.
.	.	.	.	.	.	.	.	.	.	16c\	-mi-	.	.	.	.	16ee\	-mi-	.	16g\Jk	.	16g\JJ	.
!	!	!LO:DY:a:t=Piano	!	!	!	!	!	!	!	!	!	!	!	!	!	!	!	!	!	!	!	!
8F\L	.	p	8ff\L	.	8aa\L	.	8F,<\	-num	.	8A/	-n(um)	.	8a,<\	-num	.	8ff,<\	-num	.	8f\L	.	8a\L	.
!	!	!	!	!	!	!LO:DY:a:t=Pian	!	!	!LO:DY:a:t=Piano	!	!	!LO:DY:a:t=Piano	!LO:LB:g=original	!	!LO:DY:t=Piano	!	!	!LO:DY:a:t=Piano	!	!LO:DY:a:t=Piano	!	!LO:DY:a:t=Piano
8F\J	.	.	8ff\J	.	8aa\J	p	8F\	lau-	p	8c\	lau-	p	8a\	Lau-	p	8ff\	lau-	p	8f\J	p	8a\J	p
!	!	!	!	!	!LO:LB:g=original	!	!LO:LB:g=original	!	!	!LO:LB:g=original	!	!	!	!	!	!LO:LB:g=original	!	!	!	!	!	!
=4	=4	=4	=4	=4	=4	=4	=4	=4	=4	=4	=4	=4	=4	=4	=4	=4	=4	=4	=4	=4	=4	=4
!	!	!	!	!LO:DY:t=Piano	!	!	!	!	!	!	!	!	!	!	!	!	!	!	!LO:TX:a:t=P:problem:mixed beam	!	!	!
8G\L	6	.	8ee\L	p	8gg\L	.	8G\	-da-	.	8B-\	-da-	.	8g\	-da-	.	8ee\	-da-	.	8g/L	.	8g\L	.
8A\	6	.	8ff\J	.	8ff\J	.	8A,<\	-te	.	8c\	-te	.	8f\	-te	.	8ff\	-te,	.	8c\J	.	8f\J	.
8B-\	3	.	8dd\L	.	8ff\L	.	8B-\	pu-	.	8d\	pu-	.	8f\	pu-	.	8dd\	pu-	.	8F/L	.	16f\LL	.
.	.	.	.	.	.	.	.	.	.	.	.	.	.	.	.	.	.	.	.	.	16f\	.
8A\J	6	.	16ee\L	.	16gg\L	.	16A\	-e-	.	16c\	-e-	.	16g\	-e-	.	16ee\	-e-	.	8c/J	.	16g\	.
.	.	.	16ff\JJ	.	16aa\JJ	.	16B-\	-ri	.	16d\	-ri	.	16a\	-ri	.	16ff\	-ri	.	.	.	16a\JJ	.
!LO:TX:a:t=P:problem:mixed beam	!	!	!	!	!	!	!	!	!	!	!	!	!	!	!	!	!	!	!	!	!	!
8G\L	6	.	8ff\L	.	8bb-\L	.	8G\	Do-	.	8.B-\	Do-	.	8b-\	Do-	.	8.ff\	Do-	.	8.g\L	.	16b-\LL	.
.	.	.	.	.	.	.	.	.	.	.	.	.	.	.	.	.	.	.	.	.	16a\	.
8C/J	6	.	8ee\J	.	8gg\J	.	8c\	-mi-	.	.	.	.	8g\	-mi-	.	.	.	.	.	.	16b-\	.
.	.	.	.	.	.	.	.	.	.	16c\	-mi-	.	.	.	.	16ee\	-mi-	.	16g\Jk	.	16g\JJ	.
!	!	!	!LO:LB:g=original	!	!	!	!	!	!	!	!	!	!	!	!	!	!	!	!	!	!LO:TX:a:t=P:problem:mixed beam	!
4F\	.	.	16ff\LL	.	16aa\LL	.	8F\	-num	.	8c,<\	-nu(m)	.	8a\	-nu(m)	.	8ff\	-num	.	8f\	.	8a\L	.
!	!	!	!	!LO:DY:t=Forte	!	!LO:DY:t=forte	!	!	!	!	!	!	!	!	!	!	!	!	!	!	!	!
.	.	.	16cc\	f	16ff\	f	.	.	.	.	.	.	.	.	.	.	.	.	.	.	.	.
!	!	!	!	!	!	!	!	!	!	!	!	!LO:DY:a:t=Forte	!	!	!	!	!	!	!	!	!	!LO:DY:t=Forte
.	.	.	16a\	.	16cc\	.	8r	.	.	8c\	lau-	f	8r	.	.	8r	.	.	8r	.	8c/J	f
.	.	.	16cc\JJ	.	16ff\JJ	.	.	.	.	.	.	.	.	.	.	.	.	.	.	.	.	.
!LO:LB:g=original	!	!	!	!	!	!	!	!	!	!	!	!	!	!	!	!	!	!	!	!	!	!
=5	=5	=5	=5	=5	=5	=5	=5	=5	=5	=5	=5	=5	=5	=5	=5	=5	=5	=5	=5	=5	=5	=5
!	!	!	!	!	!LO:TX:a:t=P:problem:mixed beam	!	!	!	!	!	!	!	!	!	!	!	!	!	!	!LO:DY:a:t=Forte	!	!
8r	.	.	8f/L	.	8a/L	.	8r	.	.	16c\LL	-da-	.	8r	.	.	4r	.	.	8r	f	8c/L	.
.	.	.	.	.	.	.	.	.	.	16d\	.	.	.	.	.	.	.	.	.	.	.	.
!	!	!LO:DY:a:t=Forte	!	!	!	!	!	!	!LO:DY:a:t=Forte	!	!	!	!	!	!LO:DY:t=fort	!	!	!	!	!	!	!
8F\L	.	f	8cc/J	.	8aa\	.	8F\	Lau-	f	16c\	.	.	8a\	lau-	f	.	.	.	8c/	.	16c/L	.
.	.	.	.	.	.	.	.	.	.	16d\JJ	.	.	.	.	.	.	.	.	.	.	16c/JJ	.
!	!	!	!	!	!	!	!	!	!	!	!	!	!	!	!	!	!	!LO:DY:t=forte.	!	!	!LO:LB:g=original	!
8E\	.	.	8ee\L	.	8aa\	.	8E\	-da-	.	16c\LL	.	.	8g\	-da-	.	8r	.	f	8c/L	.	8c/L	.
.	.	.	.	.	.	.	.	.	.	16d\	.	.	.	.	.	.	.	.	.	.	.	.
8C\J	.	.	8ee\J	.	8aa\J	.	8C/	-te	.	16c\	.	.	8e\	-te	.	8cc\	lau-	.	16c/L	.	8c/J	.
.	.	.	.	.	.	.	.	.	.	16d\JJ	.	.	.	.	.	.	.	.	16c/JJ	.	.	.
!	!	!	!	!	!	!	!	!	!	!	!	!	!	!	!	!	!	!	!LO:LB:g=original	!	!	!
8r	.	.	8r	.	8r	.	8r	.	.	16c\LL	.	.	8r	.	.	8cc\	-da-	.	8c/L	.	8c/L	.
.	.	.	.	.	.	.	.	.	.	16d\	.	.	.	.	.	.	.	.	.	.	.	.
*	*	*	*	*	*	*	*	*ij	*	*	*	*	*	*ij	*	*	*	*	*	*	*	*
8F\L	.	.	8cc\	.	8aa\	.	8F\	Lau-	.	16c\	.	.	8a\	lau-	.	8cc\	-te	.	8c/J	.	16c/L	.
.	.	.	.	.	.	.	.	.	.	16d\JJ	.	.	.	.	.	.	.	.	.	.	16c/JJ	.
8E\	6	.	16ee\LL	.	16gg\LL	.	8E\	-da-	.	16c\LL	.	.	8g\	-da-	.	8r	.	.	8c/L	.	8c/L	.
.	.	.	16cc\	.	16cc\	.	.	.	.	16d\	.	.	.	.	.	.	.	.	.	.	.	.
*	*	*	*	*	*	*	*	*	*	*	*	*	*	*	*	*	*ij	*	*	*	*	*
8C\J	.	.	16ee\	.	16ee\	.	8C/	-te	.	16c\	.	.	8e\	-te	.	8cc\	lau-	.	16c/L	.	8c/J	.
*	*	*	*	*	*	*	*	*Xij	*	*	*	*	*	*Xij	*	*	*	*	*	*	*	*
.	.	.	16gg\JJ	.	16gg\JJ	.	.	.	.	16d\JJ	.	.	.	.	.	.	.	.	16c/JJ	.	.	.
=6	=6	=6	=6	=6	=6	=6	=6	=6	=6	=6	=6	=6	=6	=6	=6	=6	=6	=6	=6	=6	=6	=6
!	!	!	!	!	!	!	!	!	!	!	!	!	!	!	!	!	!	!	!LO:TX:a:t=P:problem:mixed beam	!	!LO:TX:a:t=P:problem:mixed beam	!
8r	.	.	8cc\L	.	8ee\L	.	8r	.	.	8c\	-te	.	8r	.	.	8cc\	-da-	.	8c/L	.	8c/L	.
8C/L	6\	.	8ee\	.	8ccc\	.	8C/	lau-	.	8e\	lau-	.	8e\	lau-	.	16cc\	-te	.	8g\	.	8cc\	.
*	*	*	*	*	*	*	*	*	*	*	*	*	*	*	*	*	*Xij	*	*	*	*	*
.	.	.	.	.	.	.	.	.	.	.	.	.	.	.	.	16cc\	lau-	.	.	.	.	.
8D/	6	.	8ff\	.	8bbn\	.	8D/	-da-	.	8d\	-da-	.	8f\	-da-	.	8bn\	-da-	.	8f\	.	8bnX\	.
8E/J	.	.	8gg\J	.	8ccc\J	.	8E\	-te	.	8c\	-te	.	8g\	-te	.	8cc\	-te	.	8g\J	.	8cc\J	.
8F\L	.	.	8aa\L	.	8aa\L	.	8F\	pu-	.	8c\	pu-	.	8a\	pu-	.	8a\	pu-	.	8f\L	.	8a\L	.
8E\J	6	.	16gg\L	.	16bbn\L	.	16E\	-e-	.	16d\	-e-	.	16g\	-e-	.	16bn\	-e-	.	16g\L	.	16bnX\L	.
.	.	.	16aa\JJ	.	16ccc\JJ	.	16F\	-ri	.	16e\	-ri	.	16a\	-ri	.	16cc\	-ri	.	16a\JJ	.	16cc\JJ	.
8D\L	7	.	8ff\L	.	8ccc\L	.	8D/	Do-	.	8f\	Do-	.	8.f\	Do-	.	8cc\	Do-	.	8f\L	.	8.cc\L	.
8G\J	n	.	8gg\J	.	8bbn\J	.	8G\	-mi-	.	8d\	-mi-	.	.	.	.	8bn\	-mi-	.	8g\J	.	.	.
.	.	.	.	.	.	.	.	.	.	.	.	.	16g\	-mi-	.	.	.	.	.	.	16bnX\Jk	.
!	!	!	!	!	!	!	!LO:LB:g=original	!	!	!LO:LB:g=original	!	!	!	!	!	!LO:LB:g=original	!	!	!	!	!	!
=7	=7	=7	=7	=7	=7	=7	=7	=7	=7	=7	=7	=7	=7	=7	=7	=7	=7	=7	=7	=7	=7	=7
!	!	!	!	!	!	!	!	!	!	!	!	!	!	!	!	!	!	!	!	!LO:DY:a:t=Piano	!	!
8C/L	.	.	8ee\L	.	8ccc\L	.	8C/	-num	.	8e,<\	-num	.	8e\	-num	.	8cc,<\	-num,	.	8g\L	p	8cc\L	.
!	!	!LO:DY:b:t=piano	!	!	!	!	!	!	!LO:DY:a:t=Piano	!	!	!LO:DY:a:t=Piano	!LO:LB:g=original	!	!LO:DY:a:t=Piano	!	!	!	!	!	!	!
8C/	.	p	8ee\	.	8ccc\	.	8C/	lau-	p	8e\	lau-	p	8e\	lau-	p	8cc\	lau-	.	8g\	.	8cc\	.
!	!	!	!	!	!	!	!	!	!	!	!	!	!	!	!	!	!	!LO:DY:a:t=piano.	!	!	!	!
8D/	6\	.	8ff\	.	8bbn\	.	8D/	-da-	.	8d\	-da-	.	8f\	-da-	.	8bn\	-da-	p	8f\	.	8bnX\	.
!	!	!	!	!LO:DY:a:t=Piano	!	!	!	!	!	!	!	!	!	!	!	!	!	!	!	!	!	!
8E/J	6	.	8gg\J	p	8ccc\J	.	8E\	-te	.	8c\	-te	.	8g\	-te	.	8cc\	-te,	.	8g\J	.	8cc\J	.
8F\L	.	.	8aa\L	.	8aa\L	.	8F\	pu-	.	8c\	pu-	.	8a\	pu-	.	8a\	pu-	.	8f\L	.	8a\L	.
8E\J	6	.	16gg\L	.	16bbn\L	.	16E\	-e-	.	16d\	-e-	.	16g\	-e-	.	16bn\	-e-	.	16g\L	.	16bnX\L	.
.	.	.	16aa\JJ	.	16ccc\JJ	.	16F\	-ri	.	16e\	-ri	.	16a\	-ri	.	16cc,<\	-ri,	.	16a\JJ	.	16cc\JJ	.
8D\L	7	.	8ff\L	.	8ccc\L	.	8D/	Do-	.	8f\	Do-	.	8.f\	Do-	.	8.cc\	Do-	.	8f\L	.	8.cc\L	.
8G\J	n	.	8gg\J	.	8bbn\J	.	8G\	-mi-	.	8d\	-mi-	.	.	.	.	.	.	.	8g\J	.	.	.
.	.	.	.	.	.	.	.	.	.	.	.	.	16g\	-mi-	.	16bn\	-mi-	.	.	.	16bnX\Jk	.
=8	=8	=8	=8	=8	=8	=8	=8	=8	=8	=8	=8	=8	=8	=8	=8	=8	=8	=8	=8	=8	=8	=8
!LO:TX:a:t=P:problem:mixed beam	!	!	!	!	!	!	!	!	!LO:DY:a:t=fort	!	!	!	!	!	!	!	!	!	!LO:TX:a:t=P:problem:mixed beam	!	!	!
8C/L	.	.	8ee\L	.	8ccc\L	.	8C,</	-num	f	8e\	-nu(m)	.	8e\	-num	.	4cc\	-num	.	8g\L	.	8cc\L	.
!	!	!	!.	!LO:DY:a:t=For.	!	!	!	!	!	!	!	!LO:DY:a:t=For	!	!	!LO:DY:a:t=For	!	!	!LO:DY:t=Forte.	!	!	!	!
8c\	.	.	8cc\	f	8gg\J	.	8c\	lau-	.	8e\	lau-	f	8g\	lau-	f	.	.	f	8c/J	.	8g\J	.
!	!	!	!	!	!	!LO:DY:a:t=forte&colon;	!	!	!	!	!	!	!	!	!	!	!	!	!	!LO:DY:a:t=Forte	!	!
8c\	.	.	8ee\	.	16gg\LL	f	8c\L	-da-	.	16e\LL	-da-	.	16g\LL	-da-	.	4r	.	.	8c/L	f	16g\LL	.
.	.	.	.	.	16ee\	.	.	.	.	16c\	.	.	16e\	.	.	.	.	.	.	.	16a\	.
8B-X\J	4 2	.	8gg\J	.	16ff\	.	8B-\J	.	.	16d\	.	.	16f\	.	.	.	.	.	16A/L	.	16f\	.
.	.	.	.	.	16gg\JJ	.	.	.	.	16e\JJ	.	.	16g\JJ	.	.	.	.	.	16c/JJ	.	16g\JJ	.
!	!	!	!	!	!LO:TX:a:t=P:problem:wszystkie custos użyte jako łamanie pięciolinii	!	!	!	!	!	!	!	!	!	!	!	!	!	!	!	!	!
!	!	!	!	!	!LO:SIC:custos:v	!	!	!	!	!	!	!	!	!	!	!	!	!	!	!	!	!
!	!	!	!	!	!LO:LB:g=original	!	!	!	!	!	!	!	!	!	!	!	!	!	!	!	!	!
8A\L	6	.	8cc\L	.	8aa\L	.	8A\L	.	.	8f,<\	-te	.	8a,<\	-te	.	8r	.	.	8f\L	.	8a\L	.
8F\	.	.	8ff\	.	8aa\	.	8F\	.	.	8c\	lau-	.	8a\	lau-	.	8ff\	lau-	.	8a\J	.	8cc\J	.
8G\	7	.	8ff\	.	8gg\	.	8G\	.	.	(8B-\L	-da-	.	4g\	-da-	.	8ff\L	-da-	.	8g\L	.	8b-\L	.
8A\J	-5	.	8ee-X\J	.	8gg\J	.	8A\J	.	.	8c\J)	.	.	.	.	.	8ee-X\J	.	.	16f\L	.	16a\L	.
.	.	.	.	.	.	.	.	.	.	.	.	.	.	.	.	.	.	.	16c\JJ	.	16g\JJ	.
!	!	!	!LO:PB:g=original	!	!	!	!	!	!	!	!	!	!	!	!	!	!	!	!	!	!	!
=9	=9	=9	=9	=9	=9	=9	=9	=9	=9	=9	=9	=9	=9	=9	=9	=9	=9	=9	=9	=9	=9	=9
!	!	!	!	!	!	!	!	!	!	!	!	!	!	!	!	!	!	!	!LO:TX:a:t=P:problem:mixed beam	!	!	!
8B-\L	.	.	8dd\L	.	8ff\L	.	8B-,<\	-te	.	8d\	-te	.	8f,<\	-te	.	8dd\L	.	.	8f\L	.	8f\L	.
8B-\	.	.	8b-\	.	8dd\	.	8B-\	lau-	.	8d\	lau-	.	8d\	lau-	.	8b-\	.	.	8F/	.	8f\	.
8B-\	n4 2	.	8cc\	.	8ee\	.	(8B-\L	-da-	.	4c\	-da-	.	(8e\L	-da-	.	8cc\	.	.	8c/	.	8g\	.
8A\J	6	.	8dd\J	.	8ff\J	.	8A\J)	.	.	.	.	.	8f\J)	.	.	8dd\J	.	.	8f/J	.	8a\J	.
8G\L	6	.	8ee\L	.	8gg\L	.	8G,<\	-te	.	8B-,<\	-te	.	8g\	-te	.	8een,<\	-te,	.	8g\L	.	8b-\L	.
8E\	6	.	8ee\	.	8gg\	.	8E\	lau-	.	8c\	lau-	.	8g\	lau-	.	8ee\	lau-	.	8g\J	.	8cc\J	.
!	!	!	!	!	!	!	!	!	!	!LO:LB:g=original	!	!	!	!	!	!	!	!	!	!	!	!
8F\	5	.	8cc\	.	8aa\	.	8F\	-da-	.	8c\	-da-	.	8a\	-da-	.	8cc\	-da-	.	16g\LL	.	16cc\LL	.
.	.	.	.	.	.	.	.	.	.	.	.	.	.	.	.	.	.	.	16b-\	.	16dd\	.
8G\J	6	.	8b-\J	.	8gg\J	.	8G\	-te	.	8e\	-te	.	8g\	-te	.	8b-\	-te	.	16a\	.	16cc\	.
.	.	.	.	.	.	.	.	.	.	.	.	.	.	.	.	.	.	.	16g\JJ	.	16b-\JJ	.
!	!	!	!	!	!	!	!	!	!	!	!	!	!	!	!	!	!	!	!	!	!LO:LB:g=original	!
=10	=10	=10	=10	=10	=10	=10	=10	=10	=10	=10	=10	=10	=10	=10	=10	=10	=10	=10	=10	=10	=10	=10
!LO:TX:a:t=P:problem:mixed beam	!	!	!LO:TX:a:t=P:problem:mixed beam	!	!	!	!	!	!	!	!	!	!	!	!	!	!	!	!	!	!	!
8A\L	6	.	8a/L	.	8ff\L	.	8A\	no-	.	8c\	No-	.	8f\	No-	.	8a\	no-	.	16f/LL	.	16a\LL	.
.	.	.	.	.	.	.	.	.	.	.	.	.	.	.	.	.	.	.	16c/	.	16g\	.
!	!	!	!	!	!	!	!	!	!	!	!	!	!LO:LB:g=original	!	!	!	!	!	!	!	!	!
8B-\	6 5	.	8ff\J	.	16gg\L	.	8B-\	-men	.	8d\	-men	.	(16g\LL	-men	.	(16dd\LL	-men	.	16A/	.	16f\	.
.	.	.	.	.	16aa\JJ	.	.	.	.	.	.	.	16f\JJ)	.	.	16g\JJ)	.	.	16c/JJ	.	16g\JJ	.
!	!	!	!	!	!	!	!	!	!	!	!	!	!	!	!	!LO:LB:g=original	!	!	!	!	!	!
8c\	.	.	8ff\L	.	8.gg\L	.	8c\	Do-	.	8.c\	Do-	.	8f\	Do-	.	8a\	Do-	.	8f/L	.	8a\L	.
8C/J	4	.	8ee\J	.	.	.	8C/	-mi-	.	.	.	.	8e\	-mi-	.	(16g/LL	-mi-	.	8c/J	.	16g\L	.
.	3	.	.	.	16gg\Jk	.	.	.	.	16c\	-mi-	.	.	.	.	16f/JJ)	.	.	.	.	16f\JJ	.
!	!	!	!	!	!	!	!LO:LB:g=original	!	!	!	!	!	!	!	!	!	!	!	!LO:LB:g=original	!	!	!
8F\L	.	.	8ff\L	.	8aa\L	.	8F,<\	-ni	.	8c,<\	-ni	.	8f,<\	-ni	.	8f,</	-ni,	.	8A/L	.	8f\L	.
8c\	.	.	8ee\J	.	8gg\J	.	8c\	lau-	.	8c\	lau-	.	8e\	lau-	.	8g/	lau-	.	8c/J	.	8g\J	.
8c\	.	.	16ee\LL	.	16gg\LL	.	8c\	-da-	.	8c\	-da-	.	(16e\LL	-da-	.	(16g/LL	-da-	.	8c/L	.	16g\LL	.
.	.	.	16cc\	.	16ee\	.	.	.	.	.	.	.	16c\JJ)	.	.	16e/JJ)	.	.	.	.	16a\	.
8B-\J	4 2	.	16dd\	.	16ff\	.	8B-\	-te	.	8c\	-te	.	(16d\LL	-te	.	(16f/LL	-te,	.	16A/L	.	16f\	.
.	.	.	16ee\JJ	.	16gg\JJ	.	.	.	.	.	.	.	16e\JJ)	.	.	16g/JJ)	.	.	16c/JJ	.	16g\JJ	.
=11	=11	=11	=11	=11	=11	=11	=11	=11	=11	=11	=11	=11	=11	=11	=11	=11	=11	=11	=11	=11	=11	=11
!LO:TX:a:t=P:problem:mixed beam	!	!	!	!	!	!	!	!	!	!	!	!	!	!	!	!	!	!	!	!	!	!
8A\L	6	.	8ff\L	.	8aa\L	.	8A\	no-	.	8c\	No-	.	8f\	No-	.	8a\	no-	.	16f/LL	.	16a\LL	.
.	.	.	.	.	.	.	.	.	.	.	.	.	.	.	.	.	.	.	16c/	.	16g\	.
8B-\	6 5	.	16gg\L	.	8gg\J	.	8B-\	-men	.	8d\	-men	.	(16g\LL	-men	.	(16dd\LL	-men	.	16A/	.	16f\	.
.	.	.	16ff\JJ	.	.	.	.	.	.	.	.	.	16f\JJ)	.	.	16g\JJ)	.	.	16c/JJ	.	16g\JJ	.
8c\	.	.	8ff\L	.	8.gg\L	.	8c\	Do-	.	8.c\	Do-	.	8.fT\	Do-	.	8a\	Do-	.	8f\L	.	8a\L	.
8C/J	4	.	8ee\J	.	.	.	8C/	-mi-	.	.	.	.	.	.	.	(16g/LL	-mi-	.	8c\J	.	16g\L	.
.	3	.	.	.	16gg\Jk	.	.	.	.	16c\	-mi-	.	16e\	-mi-	.	16f/JJ)	.	.	.	.	16f\JJ	.
!LO:LB:g=original	!	!	!	!	!	!	!	!	!	!	!	!	!	!	!	!	!	!	!	!	!	!
!LO:TX:a:t=P:problem:mixed beam	!	!	!LO:TX:a:t=P:problem:mixed beam	!	!	!	!	!	!	!	!	!	!	!	!	!	!	!	!	!	!	!
8F\L	.	.	16ff\LL	.	16aa\LL	.	4F\	-ni	.	4c\	-ni	.	4f\	-ni	.	4f/	-ni	.	4A/	.	4f\	.
!	!	!	!LO:TX:b:B:t=Solo	!	!LO:TX:a:t=Solo	!	!	!	!	!	!	!	!	!	!	!	!	!	!	!	!	!
.	.	.	16a/	.	16cc\	.	.	.	.	.	.	.	.	.	.	.	.	.	.	.	.	.
!LO:TX:b:t=Solo	!	!	!	!	!	!	!	!	!	!	!	!	!	!	!	!	!	!	!	!	!	!
8A\	.	.	16a/	.	16cc\	.	.	.	.	.	.	.	.	.	.	.	.	.	.	.	.	.
.	.	.	16a/JJ	.	16cc\JJ	.	.	.	.	.	.	.	.	.	.	.	.	.	.	.	.	.
8F\	.	.	16a/LL	.	16cc\LL	.	4r	.	.	4r	.	.	4r	.	.	4r	.	.	4r	.	4r	.
.	.	.	16a/	.	16cc\	.	.	.	.	.	.	.	.	.	.	.	.	.	.	.	.	.
8BB-/J	.	.	16b-/	.	16dd\	.	.	.	.	.	.	.	.	.	.	.	.	.	.	.	.	.
.	.	.	16a/JJ	.	16cc\JJ	.	.	.	.	.	.	.	.	.	.	.	.	.	.	.	.	.
=12	=12	=12	=12	=12	=12	=12	=12	=12	=12	=12-	=12	=12	=12-	=12	=12	=12	=12	=12	=12	=12	=12	=12
!LO:TX:a:t=P:problem:mixed beam	!	!	!	!	!	!	!	!	!	!	!	!	!	!	!	!	!	!	!LO:TX:a:B:t=Solo	!	!LO:TX:a:B:t=Solo	!
8F\L	.	.	16a/LL	.	16cc\LL	.	00r	.	.	00r	.	.	0r	.	.	00r	.	.	16r	.	16r	.
.	.	.	16cc/	.	16a\	.	.	.	.	.	.	.	.	.	.	.	.	.	16a\LL	.	16cc\LL	.
8A\	.	.	16cc/	.	16a\	.	.	.	.	.	.	.	.	.	.	.	.	.	16a\	.	16cc\	.
.	.	.	16cc/JJ	.	16a\JJ	.	.	.	.	.	.	.	.	.	.	.	.	.	16a\JJ	.	16cc\JJ	.
8F\	.	.	16cc\LL	.	16a/LL	.	.	.	.	.	.	.	.	.	.	.	.	.	16a\LL	.	16cc\LL	.
.	.	.	16cc\	.	16a/	.	.	.	.	.	.	.	.	.	.	.	.	.	16a\	.	16cc\	.
8BB-/J	.	.	16dd\	.	16b-/	.	.	.	.	.	.	.	.	.	.	.	.	.	16b-\	.	16dd\	.
.	.	.	16cc\JJ	.	16a/JJ	.	.	.	.	.	.	.	.	.	.	.	.	.	16a\JJ	.	16cc\JJ	.
8F\L	.	.	16cc\LL	.	16a/LL	.	.	.	.	.	.	.	.	.	.	.	.	.	4a\	.	4cc\	.
.	.	.	16a\	.	16cc/	.	.	.	.	.	.	.	.	.	.	.	.	.	.	.	.	.
8G\	.	.	16a\	.	16cc/	.	.	.	.	.	.	.	.	.	.	.	.	.	.	.	.	.
.	.	.	16a\JJ	.	16cc/JJ	.	.	.	.	.	.	.	.	.	.	.	.	.	.	.	.	.
!	!	!	!LO:LB:g=original	!	!LO:LB:g=original	!	!	!	!	!	!	!	!	!	!	!	!	!	!	!	!	!
8A\	.	.	16cc\LL	.	16ff\LL	.	.	.	.	.	.	.	.	.	.	.	.	.	8r	.	8r	.
.	.	.	16a\	.	16cc\	.	.	.	.	.	.	.	.	.	.	.	.	.	.	.	.	.
8F\J	.	.	16cc\	.	16ff\	.	.	.	.	.	.	.	.	.	.	.	.	.	8a\	.	8cc\	.
.	.	.	16a\JJ	.	16cc\JJ	.	.	.	.	.	.	.	.	.	.	.	.	.	.	.	.	.
=13	=13	=13	=13	=13	=13	=13	=13	=13	=13	=13	=13	=13	=13	=13	=13	=13	=13	=13	=13	=13	=13	=13
8B-\L	.	.	16b-\LL	.	16dd\LL	.	.	.	.	.	.	.	.	.	.	.	.	.	4f\	.	4b-\	.
.	.	.	16b-\	.	16dd\	.	.	.	.	.	.	.	.	.	.	.	.	.	.	.	.	.
8A\	.	.	16b-\	.	16dd\	.	.	.	.	.	.	.	.	.	.	.	.	.	.	.	.	.
.	.	.	16b-\JJ	.	16dd\JJ	.	.	.	.	.	.	.	.	.	.	.	.	.	.	.	.	.
8B-\	6	.	16dd\LL	.	16gg\LL	.	.	.	.	.	.	.	.	.	.	.	.	.	8r	.	8r	.
.	.	.	16b-\	.	16dd\	.	.	.	.	.	.	.	.	.	.	.	.	.	.	.	.	.
8G\J	.	.	16dd\	.	16gg\	.	.	.	.	.	.	.	.	.	.	.	.	.	8g\	.	8b-\	.
.	.	.	16b-\JJ	.	16dd\JJ	.	.	.	.	.	.	.	.	.	.	.	.	.	.	.	.	.
!LO:TX:a:t=P:problem:mixed beam	!	!	!	!	!	!	!	!	!	!	!	!	!	!	!	!	!	!	!	!	!	!
8c\L	.	.	16g\LL	.	16ee\LL	.	.	.	.	.	.	.	.	.	.	.	.	.	8c/L	.	8g\L	.
.	.	.	16cc\	.	16cc\	.	.	.	.	.	.	.	.	.	.	.	.	.	.	.	.	.
8B-\	6	.	16dd\	.	16ff\	.	.	.	.	.	.	.	.	.	.	.	.	.	16f/L	.	16a\L	.
.	.	.	16ee\JJ	.	16gg\JJ	.	.	.	.	.	.	.	.	.	.	.	.	.	16c/JJ	.	16g\JJ	.
8c\	.	.	16g/LL	.	16cc\LL	.	.	.	.	.	.	.	.	.	.	.	.	.	8f/L	.	8a\L	.
.	.	.	16cc/	.	16ff\	.	.	.	.	.	.	.	.	.	.	.	.	.	.	.	.	.
8C/J	4	.	16g/	.	16cc\	.	.	.	.	.	.	.	.	.	.	.	.	.	8c/J	.	16g\L	.
.	3	.	16cc/JJ	.	16ee\JJ	.	.	.	.	.	.	.	.	.	.	.	.	.	.	.	16f\JJ	.
=14	=14	=14	=14	=14	=14	=14	=14	=14	=14	=14	=14	=14	=14-	=14	=14	=14	=14	=14	=14	=14	=14	=14
!	!	!	!	!	!LO:TX:b:B:t=A	!	!	!	!	!	!	!	!LO:TX:a:t=Solo	!	!	!	!	!	!	!	!	!
4F\	.	.	4a/	.	4ff\	.	.	.	.	.	.	.	8r	.	.	.	.	.	4A/	.	4f\	.
.	.	.	.	.	.	.	.	.	.	.	.	.	8c/	ſit	.	.	.	.	.	.	.	.
4r	.	.	4r	.	4r	.	.	.	.	.	.	.	8c/	No-	.	.	.	.	4r	.	4r	.
.	.	.	.	.	.	.	.	.	.	.	.	.	8c/	-men	.	.	.	.	.	.	.	.
8r	.	.	2r	.	2r	.	.	.	.	.	.	.	4.f\	Do-	.	.	.	.	2ra	.	2r	.
8F\L	.	.	.	.	.	.	.	.	.	.	.	.	.	.	.	.	.	.	.	.	.	.
8F\	.	.	.	.	.	.	.	.	.	.	.	.	.	.	.	.	.	.	.	.	.	.
8F\J	.	.	.	.	.	.	.	.	.	.	.	.	16g\	-mi-	.	.	.	.	.	.	.	.
.	.	.	.	.	.	.	.	.	.	.	.	.	16f\	-ni	.	.	.	.	.	.	.	.
=15	=15	=15	=15-	=15	=15	=15	=15	=15	=15	=15	=15	=15	=15	=15	=15	=15	=15	=15	=15	=15	=15	=15
8c\L	.	.	00r	.	00r	.	.	.	.	.	.	.	8e\	be-	.	.	.	.	00r	.	00r	.
8F\J	6	.	.	.	.	.	.	.	.	.	.	.	8d\	-ne-	.	.	.	.	.	.	.	.
!LO:TX:a:t=P:problem:mixed beam	!	!	!	!	!	!	!	!	!	!	!	!	!	!	!	!	!	!	!	!	!	!
8G\L	.	.	.	.	.	.	.	.	.	.	.	.	4dT\	-di-	.	.	.	.	.	.	.	.
.	4	.	.	.	.	.	.	.	.	.	.	.	.	.	.	.	.	.	.	.	.	.
8GG/J	n3	.	.	.	.	.	.	.	.	.	.	.	.	.	.	.	.	.	.	.	.	.
8C/L	.	.	.	.	.	.	.	.	.	.	.	.	4c\	-ctum	.	.	.	.	.	.	.	.
8D/	.	.	.	.	.	.	.	.	.	.	.	.	.	.	.	.	.	.	.	.	.	.
8E/	.	.	.	.	.	.	.	.	.	.	.	.	8g\	ex	.	.	.	.	.	.	.	.
!	!	!	!	!	!	!	!	!	!	!	!	!	!LO:LB:g=original	!	!	!	!	!	!	!	!	!
8C/J	.	.	.	.	.	.	.	.	.	.	.	.	8e\	hoc	.	.	.	.	.	.	.	.
=16	=16	=16	=16	=16	=16	=16	=16	=16	=16	=16	=16	=16	=16	=16	=16	=16	=16	=16	=16	=16	=16	=16
8F\L	.	.	.	.	.	.	00r	.	.	00r	.	.	4a\	nunc	.	1r	.	.	.	.	.	.
8G\	.	.	.	.	.	.	.	.	.	.	.	.	.	.	.	.	.	.	.	.	.	.
8A\	.	.	.	.	.	.	.	.	.	.	.	.	8r	.	.	.	.	.	.	.	.	.
8B-\J	6	.	.	.	.	.	.	.	.	.	.	.	(16g\LL	et	.	.	.	.	.	.	.	.
.	5	.	.	.	.	.	.	.	.	.	.	.	16f\JJ)	.	.	.	.	.	.	.	.	.
!LO:TX:a:t=P:problem:mixed beam	!	!	!	!	!	!	!	!	!	!	!	!	!	!	!	!	!	!	!	!	!	!
8c\L	.	.	.	.	.	.	.	.	.	.	.	.	8e\	us-	.	.	.	.	.	.	.	.
8B-\	.	.	.	.	.	.	.	.	.	.	.	.	16f\	-quae	.	.	.	.	.	.	.	.
.	.	.	.	.	.	.	.	.	.	.	.	.	16g\	in	.	.	.	.	.	.	.	.
8c\	.	.	.	.	.	.	.	.	.	.	.	.	8.g\	ſae-	.	.	.	.	.	.	.	.
8C/J	.	.	.	.	.	.	.	.	.	.	.	.	.	.	.	.	.	.	.	.	.	.
.	.	.	.	.	.	.	.	.	.	.	.	.	16f\	-cu-	.	.	.	.	.	.	.	.
=17	=17	=17	=17	=17	=17	=17	=17	=17	=17	=17	=17	=17	=17	=17	=17	=17	=17	=17	=17	=17	=17	=17
!LO:TX:a:t=P:problem:mixed beam	!	!	!	!	!	!	!	!	!	!	!	!	!	!	!	!LO:TX:a:t=Solo	!	!	!	!	!	!
8FF/L	.	.	.	.	.	.	.	.	.	.	.	.	4f\	-lum	.	8r	.	.	.	.	.	.
8F\	.	.	.	.	.	.	.	.	.	.	.	.	.	.	.	8f/	A	.	.	.	.	.
8D\	.	.	.	.	.	.	.	.	.	.	.	.	4r	.	.	16f/LL	so-	.	.	.	.	.
.	.	.	.	.	.	.	.	.	.	.	.	.	.	.	.	16g/	.	.	.	.	.	.
8BB-\J	.	.	.	.	.	.	.	.	.	.	.	.	.	.	.	16a/	.	.	.	.	.	.
.	.	.	.	.	.	.	.	.	.	.	.	.	.	.	.	16b-/JJ	.	.	.	.	.	.
!LO:TX:a:t=P:problem:mixed beam	!	!	!	!	!	!	!	!	!	!	!	!	!	!	!	!	!	!	!	!	!	!
8AA/L	.	.	.	.	.	.	.	.	.	.	.	.	2r	.	.	16cc\LL	.	.	.	.	.	.
.	.	.	.	.	.	.	.	.	.	.	.	.	.	.	.	16dd\	.	.	.	.	.	.
8F\	.	.	.	.	.	.	.	.	.	.	.	.	.	.	.	16ee\	.	.	.	.	.	.
.	.	.	.	.	.	.	.	.	.	.	.	.	.	.	.	16ff\JJ	.	.	.	.	.	.
8E\	-5	.	.	.	.	.	.	.	.	.	.	.	.	.	.	16gg\LL	.	.	.	.	.	.
.	.	.	.	.	.	.	.	.	.	.	.	.	.	.	.	16b-\JJ	.	.	.	.	.	.
8C\J	.	.	.	.	.	.	.	.	.	.	.	.	.	.	.	(16cc\LL	-lis,	.	.	.	.	.
.	.	.	.	.	.	.	.	.	.	.	.	.	.	.	.	16b-\JJ)	.	.	.	.	.	.
=18	=18	=18	=18	=18	=18	=18	=18	=18	=18	=18	=18	=18	=18-	=18	=18	=18	=18	=18	=18	=18	=18	=18
8F\L	.	.	.	.	.	.	.	.	.	.	.	.	00r	.	.	8a\	or-	.	.	.	.	.
16c\L	.	.	.	.	.	.	.	.	.	.	.	.	.	.	.	8g,</	-tu,	.	.	.	.	.
16B-\JJ	.	.	.	.	.	.	.	.	.	.	.	.	.	.	.	.	.	.	.	.	.	.
!LO:LB:g=original	!	!	!	!	!	!	!	!	!	!	!	!	!	!	!	!LO:PB:g=original	!	!	!	!	!	!
8A\L	#_	.	.	.	.	.	.	.	.	.	.	.	.	.	.	8a\	us-	.	.	.	.	.
8G\J	.	.	.	.	.	.	.	.	.	.	.	.	.	.	.	(16bn\LL	-que	.	.	.	.	.
.	.	.	.	.	.	.	.	.	.	.	.	.	.	.	.	16cc#X\JJ)	.	.	.	.	.	.
8F\L	6	.	.	.	.	.	.	.	.	.	.	.	.	.	.	16dd\LL	ad	.	.	.	.	.
.	.	.	.	.	.	.	.	.	.	.	.	.	.	.	.	16cc#\	.	.	.	.	.	.
8D\J	.	.	.	.	.	.	.	.	.	.	.	.	.	.	.	16b-X\	.	.	.	.	.	.
.	.	.	.	.	.	.	.	.	.	.	.	.	.	.	.	16a\JJ	.	.	.	.	.	.
8G\L	.	.	.	.	.	.	.	.	.	.	.	.	.	.	.	16b-\LL	.	.	.	.	.	.
.	.	.	.	.	.	.	.	.	.	.	.	.	.	.	.	16a\JJ	.	.	.	.	.	.
8E\J	.	.	.	.	.	.	.	.	.	.	.	.	.	.	.	16g/LL	.	.	.	.	.	.
.	.	.	.	.	.	.	.	.	.	.	.	.	.	.	.	16f/JJ	oc-	.	.	.	.	.
=19	=19	=19	=19	=19	=19	=19	=19	=19	=19	=19	=19	=19	=19	=19	=19	=19	=19	=19	=19	=19	=19	=19
8A\L	#	.	1r	.	1r	.	.	.	.	.	.	.	.	.	.	8e/	-ca-	.	00r	.	00r	.
8G\	.	.	.	.	.	.	.	.	.	.	.	.	.	.	.	8e/	-sum,	.	.	.	.	.
8F\	.	.	.	.	.	.	.	.	.	.	.	.	.	.	.	8r	.	.	.	.	.	.
8C#X\J	6	.	.	.	.	.	.	.	.	.	.	.	.	.	.	8ee\	lau-	.	.	.	.	.
8D\L	.	.	.	.	.	.	.	.	.	.	.	.	.	.	.	16ff\LL	-da-	.	.	.	.	.
.	.	.	.	.	.	.	.	.	.	.	.	.	.	.	.	16gg\	.	.	.	.	.	.
8A\	#	.	.	.	.	.	.	.	.	.	.	.	.	.	.	16ee\	.	.	.	.	.	.
.	.	.	.	.	.	.	.	.	.	.	.	.	.	.	.	16ff\JJ	.	.	.	.	.	.
8F\	6	.	.	.	.	.	.	.	.	.	.	.	.	.	.	16dd\LL	.	.	.	.	.	.
.	.	.	.	.	.	.	.	.	.	.	.	.	.	.	.	16ff\JJ	.	.	.	.	.	.
8G\J	6	.	.	.	.	.	.	.	.	.	.	.	.	.	.	16ee\	-bi-	.	.	.	.	.
.	5	.	.	.	.	.	.	.	.	.	.	.	.	.	.	16dd\	-le,	.	.	.	.	.
=20	=20	=20	=20-	=20	=20-	=20	=20	=20	=20	=20	=20	=20	=20	=20	=20	=20	=20	=20	=20	=20	=20	=20
!	!	!	!	!	!	!	!LO:TX:a:t=Solo	!	!	!	!	!	!	!	!	!	!	!	!	!	!	!
8A\L	#	.	2r	.	2r	.	4r	.	.	0r	.	.	.	.	.	8cc#X\	No-	.	.	.	.	.
8G\J	5	.	.	.	.	.	.	.	.	.	.	.	.	.	.	(16dd\LL	-men,	.	.	.	.	.
.	6	.	.	.	.	.	.	.	.	.	.	.	.	.	.	16ee\JJ)	.	.	.	.	.	.
!LO:TX:a:t=P:problem:mixed beam	!	!	!	!	!	!	!	!	!	!	!	!	!	!	!	!	!	!	!	!	!	!
8A\L	6 4	.	.	.	.	.	8r	.	.	.	.	.	.	.	.	8ff\	Do-	.	.	.	.	.
8AA/J	5 3	.	.	.	.	.	8A\	Ex-	.	.	.	.	.	.	.	(16ee\LL	-mi-	.	.	.	.	.
.	.	.	.	.	.	.	.	.	.	.	.	.	.	.	.	16dd\JJ)	.	.	.	.	.	.
!LO:TX:a:t=P:problem:mixed beam	!	!	!	!	!	!	!	!	!	!	!	!	!	!	!	!	!	!	!	!	!	!
8D\L	.	.	16r	.	16r	.	8d\	-cel-	.	.	.	.	.	.	.	8dd\	-ni	.	.	.	.	.
.	.	.	16f/LL	.	16a/LL	.	.	.	.	.	.	.	.	.	.	.	.	.	.	.	.	.
8F\	6	.	16f/	.	16a/	.	8d\	-sus	.	.	.	.	.	.	.	8r	.	.	.	.	.	.
.	.	.	16f/JJ	.	16a/JJ	.	.	.	.	.	.	.	.	.	.	.	.	.	.	.	.	.
!	!	!	!	!	!	!	!	!	!	!	!	!	!	!	!	!LO:TX:b:t=Bas	!	!	!	!	!	!
8D\	.	.	16f/LL	.	16a/LL	.	8A\	ſu-	.	.	.	.	.	.	.	4r	.	.	.	.	.	.
.	.	.	16f/	.	16a/	.	.	.	.	.	.	.	.	.	.	.	.	.	.	.	.	.
8GG/J	-	.	16g/	.	16b-/	.	8G\	-per	.	.	.	.	.	.	.	.	.	.	.	.	.	.
.	.	.	16f/JJ	.	16a/JJ	.	.	.	.	.	.	.	.	.	.	.	.	.	.	.	.	.
=21	=21	=21	=21	=21	=21	=21	=21	=21	=21	=21	=21	=21	=21	=21	=21	=21	=21	=21	=21	=21	=21	=21
!LO:TX:a:t=P:problem:mixed beam	!	!	!	!	!LO:TX:a:t=P:problem:mixed beam	!	!	!	!	!	!	!	!	!	!	!	!	!	!	!	!	!
8D\L	.	.	16f/LL	.	16a/LL	.	8F\	om-	.	.	.	.	.	.	.	00r	.	.	.	.	.	.
.	.	.	16a/	.	16ff\	.	.	.	.	.	.	.	.	.	.	.	.	.	.	.	.	.
8F\	6	.	16a/	.	16ff\	.	8D/	-nes	.	.	.	.	.	.	.	.	.	.	.	.	.	.
.	.	.	16a/JJ	.	16ff\JJ	.	.	.	.	.	.	.	.	.	.	.	.	.	.	.	.	.
!	!	!	!LO:LB:g=original	!	!	!	!	!	!	!	!	!	!	!	!	!	!	!	!	!	!	!
8D\	.	.	16a/LL	.	16ff\LL	.	8A\	gen-	.	.	.	.	.	.	.	.	.	.	.	.	.	.
.	.	.	16a/	.	16ff\	.	.	.	.	.	.	.	.	.	.	.	.	.	.	.	.	.
8GG/J	-	.	16b-/	.	16gg\	.	8G\	-tes	.	.	.	.	.	.	.	.	.	.	.	.	.	.
.	.	.	16a/JJ	.	16ff\JJ	.	.	.	.	.	.	.	.	.	.	.	.	.	.	.	.	.
!	!	!	!	!	!LO:TX:a:t=P:problem:mixed beam	!	!	!	!	!	!	!	!	!	!	!	!	!	!	!	!	!
8D\L	.	.	16g/LL	.	16ff\LL	.	8.A\	Do-	.	.	.	.	.	.	.	.	.	.	.	.	.	.
.	.	.	16f/	.	16a/	.	.	.	.	.	.	.	.	.	.	.	.	.	.	.	.	.
8E\	.	.	16f/	.	16a/	.	.	.	.	.	.	.	.	.	.	.	.	.	.	.	.	.
.	.	.	16f/JJ	.	16a/JJ	.	16A\	-mi-	.	.	.	.	.	.	.	.	.	.	.	.	.	.
!	!	!	!	!	!LO:SIC:custos:v	!	!	!	!	!	!	!	!	!	!	!	!	!	!	!	!	!
!	!	!	!	!	!LO:LB:g=original	!	!	!	!	!	!	!	!	!	!	!	!	!	!	!	!	!
8F\	.	.	16a/LL	.	16dd\LL	.	8A\	-n(us)	.	.	.	.	.	.	.	.	.	.	.	.	.	.
.	.	.	16f/	.	16a\	.	.	.	.	.	.	.	.	.	.	.	.	.	.	.	.	.
8D\J	.	.	16a/	.	16dd\	.	8D/	et	.	.	.	.	.	.	.	.	.	.	.	.	.	.
.	.	.	16f/JJ	.	16a\JJ	.	.	.	.	.	.	.	.	.	.	.	.	.	.	.	.	.
!	!	!	!	!	!	!	!LO:LB:g=original	!	!	!	!	!	!	!	!	!	!	!	!	!	!	!
=22	=22	=22	=22	=22	=22	=22	=22	=22	=22	=22	=22	=22	=22	=22	=22	=22	=22	=22	=22	=22	=22	=22
8G\L	-	.	16g/LL	.	16b-\LL	.	8G\	ſu-	.	1r	.	.	00r	.	.	.	.	.	.	.	.	.
.	.	.	16g/	.	16b-\	.	.	.	.	.	.	.	.	.	.	.	.	.	.	.	.	.
8F\	.	.	16g/	.	16b-\	.	8F\	-per	.	.	.	.	.	.	.	.	.	.	.	.	.	.
.	.	.	16g/JJ	.	16b-\JJ	.	.	.	.	.	.	.	.	.	.	.	.	.	.	.	.	.
8G\	6	.	16b-/LL	.	16ee\LL	.	8G\	Cae-	.	.	.	.	.	.	.	.	.	.	.	.	.	.
.	.	.	16g/	.	16b-\	.	.	.	.	.	.	.	.	.	.	.	.	.	.	.	.	.
8E\J	.	.	16b-/	.	16ee\	.	8E\	-los	.	.	.	.	.	.	.	.	.	.	.	.	.	.
.	.	.	16g/JJ	.	16b-\JJ	.	.	.	.	.	.	.	.	.	.	.	.	.	.	.	.	.
!LO:TX:a:t=P:problem:mixed beam	!	!	!	!	!	!	!	!	!	!	!	!	!	!	!	!	!	!	!	!	!	!
8A\L	#	.	16e/LL	.	16cc#X\LL	.	8A\	glo-	.	.	.	.	.	.	.	.	.	.	.	.	.	.
.	.	.	16e/	.	16a\	.	.	.	.	.	.	.	.	.	.	.	.	.	.	.	.	.
8G\	6 5	.	16f/	.	16dd\	.	16A\	-ri-	.	.	.	.	.	.	.	.	.	.	.	.	.	.
.	.	.	16g/JJ	.	16ee\JJ	.	16G\	-a	.	.	.	.	.	.	.	.	.	.	.	.	.	.
!	!	!	!	!	!	!	!LO:TX:a:t=P:problem:mixed beam	!	!	!	!	!	!	!	!	!	!	!	!	!	!	!
8A\	#	.	16e/LL	.	16cc#X\LL	.	8A\L	e-	.	.	.	.	.	.	.	.	.	.	.	.	.	.
.	.	.	16a/	.	16ee\	.	.	.	.	.	.	.	.	.	.	.	.	.	.	.	.	.
8AA/J	.	.	16e/	.	16a\	.	8AA/J	.	.	.	.	.	.	.	.	.	.	.	.	.	.	.
.	.	.	16a/JJ	.	16cc#X\JJ	.	.	.	.	.	.	.	.	.	.	.	.	.	.	.	.	.
!	!	!	!	!	!	!	!	!	!	!	!	!	!	!	!	!	!	!	!	!	!LO:LB:g=original	!
=23	=23	=23	=23	=23	=23	=23	=23	=23	=23	=23-	=23	=23	=23	=23	=23	=23	=23	=23	=23	=23	=23	=23
!	!	!	!	!	!	!	!	!	!	!LO:TX:a:t=Solo	!	!	!	!	!	!	!	!	!	!	!	!
8D\L	.	.	4f/	.	4dd\	.	4D/	-jus	.	4d\	Quis	.	.	.	.	.	.	.	1r	.	1r	.
8E\	.	.	.	.	.	.	.	.	.	.	.	.	.	.	.	.	.	.	.	.	.	.
8F\	.	.	4r	.	4r	.	4r	.	.	8r	.	.	.	.	.	.	.	.	.	.	.	.
8D\J	.	.	.	.	.	.	.	.	.	8d\	quis	.	.	.	.	.	.	.	.	.	.	.
4A\	#	.	2r	.	2rg	.	2rC	.	.	8c#X\	ſi-	.	.	.	.	.	.	.	.	.	.	.
.	.	.	.	.	.	.	.	.	.	8d\	-cut	.	.	.	.	.	.	.	.	.	.	.
!	!	!	!	!	!	!	!	!	!	!LO:LB:g=original	!	!	!	!	!	!	!	!	!	!	!	!
8r	.	.	.	.	.	.	.	.	.	8e\	Do-	.	.	.	.	.	.	.	.	.	.	.
8AA/	.	.	.	.	.	.	.	.	.	16d\	-mi-	.	.	.	.	.	.	.	.	.	.	.
.	.	.	.	.	.	.	.	.	.	16e\	-nus	.	.	.	.	.	.	.	.	.	.	.
=24	=24	=24	=24	=24	=24	=24	=24	=24	=24	=24	=24	=24	=24	=24	=24	=24	=24	=24	=24	=24	=24	=24
8D\L	.	.	2r	.	2rg	.	00r	.	.	8f\	Deus	.	.	.	.	.	.	.	2r	.	2r	.
8E\	.	.	.	.	.	.	.	.	.	8e\	.	.	.	.	.	.	.	.	.	.	.	.
8F\	6	.	.	.	.	.	.	.	.	4d\	No-	.	.	.	.	.	.	.	.	.	.	.
8G\J	5	.	.	.	.	.	.	.	.	.	.	.	.	.	.	.	.	.	.	.	.	.
4A\	#	.	8r	.	8r	.	.	.	.	4c#X,<\	-ster	.	.	.	.	.	.	.	4r	.	4r	.
.	.	.	8a/	.	16a/LL	.	.	.	.	.	.	.	.	.	.	.	.	.	.	.	.	.
.	.	.	.	.	16bn/JJ	.	.	.	.	.	.	.	.	.	.	.	.	.	.	.	.	.
4r	.	.	8a/L	.	8cc#X\L	.	.	.	.	8e\	qui	.	.	.	.	.	.	.	8r	.	8r	.
.	.	.	16bn/L	.	16dd\L	.	.	.	.	8e\	in	.	.	.	.	.	.	.	8A/	.	8a\	.
.	.	.	16cc#X/JJ	.	16ee\JJ	.	.	.	.	.	.	.	.	.	.	.	.	.	.	.	.	.
!LO:PB:g=original	!	!	!LO:LB:g=original	!	!	!	!	!	!	!	!	!	!	!	!	!	!	!	!LO:LB:g=original	!	!	!
=25	=25	=25	=25	=25	=25	=25	=25	=25	=25	=25	=25	=25	=25	=25	=25	=25	=25	=25	=25	=25	=25	=25
!	!	!	!LO:TX:a:t=P:problem:mixed beam	!	!	!	!	!	!	!	!	!	!	!	!	!	!	!	!	!	!	!
4AA/	6 4	.	8dd\L	.	16dd\LL	.	.	.	.	(8f\L	al-	.	.	.	.	0r	.	.	(8A'/L	.	(8a'\L	.
.	.	.	.	.	16aa\	.	.	.	.	.	.	.	.	.	.	.	.	.	.	.	.	.
.	.	.	8cc#X\	.	16cc#X\	.	.	.	.	8e\J)	.	.	.	.	.	.	.	.	8A'/	.	8a'\)	.
.	.	.	.	.	16aa\JJ	.	.	.	.	.	.	.	.	.	.	.	.	.	.	.	.	.
4r	.	.	8dd\	.	16dd\LL	.	.	.	.	(8f\L	-tis	.	.	.	.	.	.	.	8A'/	.	(8a'\	.
.	.	.	.	.	16aa\	.	.	.	.	.	.	.	.	.	.	.	.	.	.	.	.	.
.	.	.	8d/J	.	16ff\	.	.	.	.	8d\J)	.	.	.	.	.	.	.	.	8A'/J)	.	8a'\J)	.
.	.	.	.	.	16aa\JJ	.	.	.	.	.	.	.	.	.	.	.	.	.	.	.	.	.
8r	.	.	8a/L	.	8cc#X\L	.	.	.	.	8e\	ha-	.	.	.	.	.	.	.	(8A'/L	.	(8a'\L	.
8A\L	.	.	8A/J	.	8a\J	.	.	.	.	16e\	-bi-	.	.	.	.	.	.	.	8A'/J)	.	8a'\J)	.
.	.	.	.	.	.	.	.	.	.	16e,<\	-tat	.	.	.	.	.	.	.	.	.	.	.
8F\	6	.	4r	.	4r	.	.	.	.	8A/	et	.	.	.	.	.	.	.	4r	.	4r	.
8C#X\J	5	.	.	.	.	.	.	.	.	8G/	hu-	.	.	.	.	.	.	.	.	.	.	.
!	!	!	!	!	!LO:LB:g=original	!	!	!	!	!	!	!	!	!	!	!	!	!	!	!	!	!
=26	=26	=26	=26	=26	=26	=26	=26	=26	=26	=26	=26	=26	=26	=26	=26	=26	=26	=26	=26	=26	=26	=26
8D\L	.	.	1r	.	1r	.	.	.	.	8F/	-mi-	.	0r	.	.	.	.	.	1r	.	1r	.
8E\	.	.	.	.	.	.	.	.	.	16E/	-li-	.	.	.	.	.	.	.	.	.	.	.
.	.	.	.	.	.	.	.	.	.	16D/	-a	.	.	.	.	.	.	.	.	.	.	.
8F\	.	.	.	.	.	.	.	.	.	8A/	reſ-	.	.	.	.	.	.	.	.	.	.	.
8D\J	.	.	.	.	.	.	.	.	.	8d\	-pi-	.	.	.	.	.	.	.	.	.	.	.
8A\L	.	.	.	.	.	.	.	.	.	8c#X\	-cit	.	.	.	.	.	.	.	.	.	.	.
!	!	!	!	!	!	!	!	!	!	!LO:PB:g=original	!	!	!	!	!	!	!	!	!	!	!	!
8G\	2	.	.	.	.	.	.	.	.	8A/	in	.	.	.	.	.	.	.	.	.	.	.
8F\	6	.	.	.	.	.	.	.	.	8d\	Cae-	.	.	.	.	.	.	.	.	.	.	.
8C#X\J	6	.	.	.	.	.	.	.	.	8e\	-lo	.	.	.	.	.	.	.	.	.	.	.
=27	=27	=27	=27-	=27	=27-	=27	=27	=27	=27	=27	=27	=27	=27	=27	=27	=27	=27	=27	=27-	=27	=27	=27
8D/L	.	.	2r	.	2r	.	.	.	.	8f\	et	.	.	.	.	1r	.	.	2r	.	2r	.
8BB-/	5	.	.	.	.	.	.	.	.	8F/	in	.	.	.	.	.	.	.	.	.	.	.
8GG/	6	.	.	.	.	.	.	.	.	4Et/	ter-	.	.	.	.	.	.	.	.	.	.	.
8AA/J	#	.	.	.	.	.	.	.	.	.	.	.	.	.	.	.	.	.	.	.	.	.
8D/L	.	.	8r	.	8r	.	.	.	.	4D/	-ra	.	.	.	.	.	.	.	16r	.	16r	.
.	.	.	.	.	.	.	.	.	.	.	.	.	.	.	.	.	.	.	16A/LL	.	16A/LL	.
8AA/J	#	.	8c#X/	.	8e/	.	.	.	.	.	.	.	.	.	.	.	.	.	16A/	.	16A/	.
.	.	.	.	.	.	.	.	.	.	.	.	.	.	.	.	.	.	.	16A/JJ	.	16A/JJ	.
4DD/	#	.	4d;</	.	4f#X;</	.	.	.	.	4r	.	.	.	.	.	.	.	.	4A;</	.	4A/	.
!	!	!	!	!	!	!	!	!	!	!	!	!	!	!	!	!LO:LB:g=original	!	!	!	!	!	!
=28	=28	=28	=28	=28	=28	=28	=28	=28	=28	=28	=28	=28	=28-	=28	=28	=28	=28	=28	=28	=28	=28	=28
!LO:TX:a:t=Tutti	!	!	!LO:TX:a:B:t=Tutti	!	!LO:TX:a:t=Tutti	!	!	!	!	!LO:TX:a:t=Tut	!	!	!	!	!	!LO:TX:b:t=Tutti	!	!	!	!	!	!
8.F\L	.	.	8.cc\L	.	8.aa\L	.	8.F\	ſu-	.	8.c\	ſu-	.	8.a\	ſus-	.	8.ff\	Sus-	.	2r	.	2r	.
!	!	!	!	!	!	!	!	!	!	!	!	!	!LO:TX:a:B:t=T	!	!	!	!	!	!	!	!	!
16F\	.	.	16cc\Jk	.	16aa\K	.	16F\	-sci-	.	16c\	-sci-	.	16a\	-ci-	.	16ff\	-ci-	.	.	.	.	.
8F	.	.	8ff\L	.	8aa\	.	8F\	-tans	.	8c\	-tans	.	8a\	-tans	.	8ff,<\	-tans,	.	.	.	.	.
8G\J	6	.	8ee\J	.	8bb-\J	.	8G\	a	.	8B-\	a	.	8g\	a	.	8ee\	à	.	.	.	.	.
!	!	!	!	!	!	!	!	!	!	!	!	!	!	!	!	!	!	!	!LO:TX:a:B:t=Tutti	!	!LO:TX:a:B:t=Tutti	!
8A\L	6	.	8.ff\L	.	8.aa\L	.	8A\	ter-	.	8c\	ter-	.	8f\	ter-	.	8ff\	ter-	.	8.f\L	.	8.a\L	.
8F\J	.	.	.	.	.	.	8F\	-ra	.	8A/	-ra	.	8a\	-ra	.	8cc\	-ra,	.	.	.	.	.
.	.	.	16ff\	.	16aa\K	.	.	.	.	.	.	.	.	.	.	.	.	.	16f\	.	16a\	.
4r	.	.	8ff\	.	8aa\	.	4r	.	.	4r	.	.	4r	.	.	4r	.	.	8f\	.	8a\	.
.	.	.	8gg\J	.	8bb-\J	.	.	.	.	.	.	.	.	.	.	.	.	.	8g\J	.	8b-\J	.
=29	=29	=29	=29	=29	=29	=29	=29	=29	=29	=29	=29	=29	=29	=29	=29	=29	=29	=29	=29	=29	=29	=29
*	*	*	*	*	*	*	*	*ij	*	*	*	*	*	*ij	*	*	*ij	*	*	*	*	*
8.F\L	.	.	8aa\L	.	8ccc\L	.	8.F\	Su-	.	8.c\	ſu-	.	8.a\	Su-	.	8.ff\	Sus-	.	8a\L	.	8cc\L	.
.	.	.	8ff\J	.	8aa\J	.	.	.	.	.	.	.	.	.	.	.	.	.	8f\J	.	8a\J	.
16F\	.	.	.	.	.	.	16F\	-sci-	.	16c\	-sci-	.	16a\	-sci-	.	16ff\	-ci-	.	.	.	.	.
8F\	.	.	8r	.	8r	.	8F\	-tans	.	8c\	-tans	.	8a\	-tans	.	8ff\	-tans,	.	4r	.	4r	.
8G\J	6	.	8ee\	.	8bb-\	.	8G\	a	.	8B-\	a	.	8g\	a	.	8ee\	à	.	.	.	.	.
!	!	!	!	!	!	!	!LO:PB:g=original	!	!	!	!	!	!	!	!	!	!	!	!	!	!	!
8A\L	6	.	8.ff\L	.	8.aa\L	.	8A\	ter-	.	8c\	ter-	.	8f\	ter-	.	8ff\	ter-	.	8.f\L	.	8.a\L	.
8F\J	.	.	.	.	.	.	8F\	-ra	.	8A/	-ra	.	8a\	-ra	.	8cc\	-ra	.	.	.	.	.
*	*	*	*	*	*	*	*	*Xij	*	*	*	*	*	*Xij	*	*	*Xij	*	*	*	*	*
!	!	!	!	!	!	!	!	!	!	!	!	!	!LO:LB:g=original	!	!	!	!	!	!	!	!	!
.	.	.	16ff\	.	16aa\K	.	.	.	.	.	.	.	.	.	.	.	.	.	16f\K	.	16a\	.
8r	.	.	8ff\	.	8aa\	.	8r	.	.	8r	.	.	8r	.	.	8r	.	.	8f\	.	8a\	.
8C/	.	.	8gg\J	.	8ccc\J	.	8C/	a	.	8e\	a	.	8g\	a	.	8cc\	à	.	8g\J	.	8cc\J	.
!	!	!	!	!	!	!	!	!	!	!LO:LB:g=original	!	!	!	!	!	!	!	!	!	!	!	!
=30	=30	=30	=30	=30	=30	=30	=30	=30	=30	=30	=30	=30	=30	=30	=30	=30	=30	=30	=30	=30	=30	=30
8F\L	.	.	8aa\L	.	8ccc\L	.	8F\	ter-	.	8c\	ter-	.	8a\	ter-	.	8cc\	ter-	.	8a\L	.	8cc\L	.
8E\	6	.	8gg\J	.	8ccc\	.	8E\	-ra	.	8c\	-ra	.	8g\	-ra	.	8cc\	-ra,	.	8g\J	.	8cc\J	.
8D\	7	.	8.ff\L	.	8ccc\	.	8D/	in-	.	8.A/	in-	.	8.f\	in-	.	8.cc\	in-	.	8.f\L	.	8.cc\L	.
8G\J	n	.	.	.	8bbn\J	.	8G\	-o-	.	.	.	.	.	.	.	.	.	.	.	.	.	.
.	.	.	16gg\Jk	.	.	.	.	.	.	16B-\	-o-	.	16g\	-o-	.	16bn\	-o-	.	16g\Jk	.	16bX\Jk	.
8C/L	.	.	8ee\L	.	16ccc\LL	.	4C,</	-pem	.	4G,</	-pem	.	4e,<\	-pem	.	4cc,<\	-pem	.	8g/L	.	8cc\L	.
.	.	.	.	.	16gg\	.	.	.	.	.	.	.	.	.	.	.	.	.	.	.	.	.
8D/	.	.	16ee\L	.	16gg\	.	.	.	.	.	.	.	.	.	.	.	.	.	16c/L	.	16g\L	.
.	.	.	16dd\JJ	.	16ff\JJ	.	.	.	.	.	.	.	.	.	.	.	.	.	16A/JJ	.	16f\JJ	.
!	!	!	!LO:LB:g=original	!	!	!	!	!	!	!	!	!	!	!	!	!	!	!	!	!	!	!
8E/	.	.	16cc\LL	.	16ee\LL	.	8E\	et	.	8c\	et	.	8g\	et	.	8cc\	et	.	8c/L	.	8g\L	.
.	.	.	16ee\	.	16gg\	.	.	.	.	.	.	.	.	.	.	.	.	.	.	.	.	.
8C/J	-7	.	16dd\	.	16ff\	.	8C/	de	.	8e\	de	.	8g\	de	.	8b-X\	de	.	16f/L	.	16a\L	.
.	.	.	16ee\JJ	.	16gg\JJ	.	.	.	.	.	.	.	.	.	.	.	.	.	16c/JJ	.	16g\JJ	.
!	!	!	!	!	!	!	!	!	!	!	!	!	!	!	!	!	!	!	!	!	!LO:LB:g=original	!
=31	=31	=31	=31	=31	=31	=31	=31	=31	=31	=31	=31	=31	=31	=31	=31	=31	=31	=31	=31	=31	=31	=31
!	!	!	!LO:TX:a:t=P:problem:mixed beam	!	!	!	!	!	!	!	!	!	!	!	!	!	!	!	!LO:TX:a:t=P:problem:mixed beam	!	!	!
8F\L	.	.	8ff\L	.	8aa\L	.	8F\	ſter-	.	8f\	ſter-	.	8a\	ster-	.	8a\	ster-	.	8A/L	.	8f\L	.
8G\	6	.	16a/L	.	16aa\L	.	16F\	-co-	.	16f\	-co-	.	16a\	-co	.	16a\	-co-	.	16a\L	.	16cc\L	.
!	!	!	!	!	!	!	!	!	!	!	!	!	!LO:SIC:v:l:s=-re	!	!	!	!	!	!	!	!	!
.	.	.	16b-/JJ	.	16gg\JJ	.	16G\	-re	.	16e\	-re	.	16g\	.	.	16b-,<\	-re,	.	16g\JJ	.	16b-\JJ	.
!	!	!	!	!	!	!	!	!	!	!	!	!	!	!	!	!LO:LB:g=original	!	!	!	!	!	!
8A\	6	.	8cc\L	.	8ff\L	.	8A\	e-	.	8f\	e-	.	8f\	e-	.	8cc\	e-	.	8f\L	.	8a\L	.
8F\J	.	.	8ff\J	.	8aa\J	.	16G\	-ri-	.	16c\	-ri-	.	16f\	-ri-	.	16ff\	-ri-	.	8a\J	.	8cc\J	.
!	!	!	!	!	!	!	!LO:SIC:v:l:s=-gens	!	!	!	!	!	!LO:SIC:v:l:s=-gens	!	!	!	!	!	!	!	!	!
.	.	.	.	.	.	.	16F\	-ens	.	16c\	-gens	.	16a\	-ens	.	16cc\	-gens,	.	.	.	.	.
!	!	!	!	!	!	!	!	!	!	!	!	!	!	!	!	!	!	!	!LO:TX:a:t=P:problem:mixed beam	!	!	!
8B-\L	.	.	8.dd\L	.	16ff\LL	.	8.B-\	pau-	.	8.B-\	pau-	.	8.f\	pau-	.	8.dd\	pau-	.	8f\L	.	8b-\L	.
.	.	.	.	.	16ff\	.	.	.	.	.	.	.	.	.	.	.	.	.	.	.	.	.
8A\	6	.	.	.	16ff\	.	.	.	.	.	.	.	.	.	.	.	.	.	16F/L	.	8f\J	.
.	.	.	16cc\Jk	.	16ff\JJ	.	16A\	-pe-	.	16c\	-pe-	.	16f\	-pe-	.	16cc\	-pe-	.	16F/JJ	.	.	.
!	!	!	!	!	!	!	!	!	!	!	!	!	!	!	!	!	!	!	!LO:LB:g=original	!	!	!
8B-\	.	.	8b-\L	.	8ff\L	.	8B-\	-re(m)	.	8d,<\	-rem	.	8f\	-rem	.	8b-,<\	-rem,	.	8F/L	.	8r	.
8A\J	6	.	8ff\J	.	8aa\J	.	8A\	ut	.	8c\	ut	.	8a\	ut	.	8ff\	ut	.	8F/J	.	8F/	.
!	!	!	!	!	!LO:LB:g=original	!	!	!	!	!	!	!	!	!	!	!	!	!	!	!	!	!
=32	=32	=32	=32	=32	=32	=32	=32	=32	=32	=32	=32	=32	=32	=32	=32	=32	=32	=32	=32	=32	=32	=32
8B-\L	.	.	8ff\L	.	8ff\L	.	8B-\	Col-	.	8d\	Col-	.	8f\	Col-	.	8ff\	Col-	.	8F/L	.	8F/L	.
8A\J	6	.	16ff\L	.	16ff\L	.	16B-\	-lo-	.	16d\	-lo-	.	16f\	-lo-	.	16ff\	-lo-	.	16F/L	.	16F/L	.
.	.	.	16ff\JJ	.	16aa\JJ	.	16A\	-cet	.	16c\	-cet	.	16a\	-cet	.	16ff\	-cet	.	16F/JJ	.	16F/JJ	.
!LO:LB:g=original	!	!	!	!	!	!	!LO:LB:g=original	!	!	!	!	!	!	!	!	!	!	!	!	!	!LO:TX:a:t=P:problem:mixed beam	!
8B-\L	.	.	8ff\L	.	8ff\L	.	8B-\	e-	.	8d\	e-	.	8f\	e-	.	8ff\	e-	.	8F/L	.	8F/L	.
8A\J	6	.	8ff\J	.	8aa\J	.	8B-,<\	-um	.	8c\	-um	.	8a\	-um	.	8ff\	-um	.	8A/J	.	8f\J	.
!	!	!	!	!	!	!	!	!	!	!LO:LB:g=original	!	!	!LO:PB:g=original	!	!	!	!	!	!	!	!	!
8G\L	6	.	8ee\L	.	8bb-\L	.	8G\	cum	.	8B-\	cum	.	8b-\	Cum	.	8ee\	cum	.	8c/L	.	8g\L	.
8F\J	.	.	8ff\J	.	8aa\J	.	8F\	prin-	.	8c\	prin-	.	8a\	prin-	.	8ff\	prin-	.	16c/L	.	8a\J	.
.	.	.	.	.	.	.	.	.	.	.	.	.	.	.	.	.	.	.	16c/JJ	.	.	.
!LO:TX:a:t=P:problem:mixed beam	!	!	!	!	!	!	!	!	!	!	!	!	!	!	!	!	!	!	!	!	!	!
8c\L	.	.	8.ff\L	.	8.gg\L	.	8.C/	-ci-	.	8.c\	-ci-	.	8.g\	-ci-	.	8.ff\	-ci-	.	8c/L	.	8.g\L	.
8C/J	4	.	.	.	.	.	.	.	.	.	.	.	.	.	.	.	.	.	8c/J	.	.	.
.	3	.	16ee\Jk	.	16gg\Jk	.	16C/	-pi-	.	16c\	-pi-	.	16g\	-pi-	.	16ee\	-pi-	.	.	.	16g\Jk	.
=33	=33	=33	=33	=33	=33	=33	=33	=33	=33	=33	=33	=33	=33	=33	=33	=33	=33	=33	=33	=33	=33	=33
!	!	!	!	!	!	!	!	!	!	!	!	!	!	!	!	!	!	!	!	!	!LO:TX:a:t=P:problem:mixed beam	!
8F\L	.	.	8ff\L	.	8aa\L	.	4F\	-bus	.	4c\	-bus	.	4a,<\	-bus	.	4ff,<\	-bus,	.	8A/L	.	8f\L	.
!	!	!	!	!	!LO:TX:b:t=raz.	!	!	!	!	!	!	!	!	!	!	!	!	!	!	!	!	!
8A\	6	.	8cc\	.	8ccc\	.	.	.	.	.	.	.	.	.	.	.	.	.	16c/L	.	16c/L	.
.	.	.	.	.	.	.	.	.	.	.	.	.	.	.	.	.	.	.	16c/JJ	.	16c/JJ	.
8c\	.	.	8gg\	.	8ccc\	.	8c\	cum	.	8G/	cum	.	8g\	Cum	.	8cc\	cum	.	16c/LL	.	8c/L	.
.	.	.	.	.	.	.	.	.	.	.	.	.	.	.	.	.	.	.	16c/	.	.	.
8B-\J	4 2	.	8gg\J	.	8ccc\J	.	8B-\	prin-	.	8G/	prin-	.	8g\	prin-	.	8cc\	prin-	.	16c/	.	8c/J	.
.	.	.	.	.	.	.	.	.	.	.	.	.	.	.	.	.	.	.	16c/JJ	.	.	.
8A\L	6	.	8.ff\L	.	16ccc\LL	.	8.A\	-ci-	.	8.A/	-ci-	.	8.f\	-ci-	.	8.cc\	-ci-	.	8c/L	.	8c/L	.
.	.	.	.	.	16ddd\	.	.	.	.	.	.	.	.	.	.	.	.	.	.	.	.	.
8G\	6	.	.	.	16ccc\	.	.	.	.	.	.	.	.	.	.	.	.	.	16c/L	.	16c/L	.
.	.	.	16ee\Jk	.	16bb-\JJ	.	16G\	-pi-	.	16B-\	-pi-	.	16e\	-pi-	.	16b-\	-pi-	.	16c/JJ	.	16c/JJ	.
8A\	6	.	8ff\L	.	16aa\LL	.	(8A\L	-bus	.	4A/	-bus	.	(8f\L	-bus	.	(8a\L	-bus,	.	8c/L	.	16c/LL	.
.	.	.	.	.	16bb-\	.	.	.	.	.	.	.	.	.	.	.	.	.	.	.	16c/	.
8E\J	6	.	8gg\J	.	16aa\	.	8E\J)	.	.	.	.	.	8g\J)	.	.	8g\J)	.	.	8c/J	.	16c/	.
.	.	.	.	.	16gg\JJ	.	.	.	.	.	.	.	.	.	.	.	.	.	.	.	16c/JJ	.
=34	=34	=34	=34	=34	=34	=34	=34	=34	=34	=34	=34	=34	=34	=34	=34	=34	=34	=34	=34	=34	=34	=34
!LO:TX:a:t=P:problem:mixed beam	!	!	!	!	!	!	!	!	!	!	!	!	!	!	!	!	!	!	!LO:TX:a:t=P:problem:mixed beam	!	!LO:TX:a:t=P:problem:mixed beam	!
8F\L	.	.	8aa\L	.	8ff\L	.	8F\	po-	.	8c\	po-	.	8a\	po-	.	8f/	po-	.	8c/L	.	8c/L	.
8B-\	6	.	16gg\L	.	16ff\L	.	16BB-/	-pu-	.	16d\	-puli	.	16g\	-pu-	.	16f/	-puli	.	8g\J	.	8g\J	.
.	5	.	16ff\JJ	.	16gg\JJ	.	16BB-/	-li	.	16d\	.	.	16f\	-li	.	16g/	.	.	.	.	.	.
!	!	!	!	!	!	!	!	!	!	!	!	!	!	!	!	!LO:LB:g=original	!	!	!	!	!	!
8c\	.	.	8ff\L	.	16gg\LL	.	4C/	ſu-	.	4c\	ſu	.	(8f\L	ſu-	.	4gT/	ſu-	.	8f\L	.	8a\L	.
.	.	.	.	.	16aa\	.	.	.	.	.	.	.	.	.	.	.	.	.	.	.	.	.
8C/J	4	.	8ee\J	.	16ff\	.	.	.	.	.	.	.	8e\J)	.	.	.	.	.	8c\J	.	16g\L	.
.	3	.	.	.	16gg\JJ	.	.	.	.	.	.	.	.	.	.	.	.	.	.	.	16f\JJ	.
!LO:TX:a:t=P:problem:mixed beam	!	!	!LO:LB:g=original	!	!	!	!	!	!	!	!	!	!	!	!	!	!	!	!	!	!LO:TX:a:t=P:problem:mixed beam	!
8F\L	.	.	16ff\LL	.	16aa\LL	.	8F\	-i	.	4c\	-i	.	4f,<\	-i	.	4f,</	-i,	.	8A/L	.	8f\L	.
!	!	!	!	!	!	!	!	!	!	!LO:TX:a:t=P:problem:przekreślona kreska taktowa	!	!	!	!	!	!	!	!	!	!	!	!
.	.	.	16ff\	.	16aa\	.	.	.	.	.	.	.	.	.	.	.	.	.	.	.	.	.
8D\	.	.	16gg\	.	16bb-\	.	8D/L	ſu-	.	.	.	.	.	.	.	.	.	.	16F/L	.	16F/L	.
.	.	.	16ff\JJ	.	16aa\JJ	.	.	.	.	.	.	.	.	.	.	.	.	.	16F/JJ	.	16F/JJ	.
8BB-/	6 5	.	8ff\L	.	16gg\LL	.	8BB-/	.	.	(8d\L	ſu-	.	(8f\L	ſu-	.	4g/	ſu-	.	16c/LL	.	16c/LL	.
.	.	.	.	.	16aa\	.	.	.	.	.	.	.	.	.	.	.	.	.	16c/	.	16c/	.
8C/J	.	.	8ee\J	.	16ff\	.	8C/J	.	.	8c\J)	.	.	8e\J)	.	.	.	.	.	16c/	.	16c/	.
.	.	.	.	.	16gg\JJ	.	.	.	.	.	.	.	.	.	.	.	.	.	16c/JJ	.	16c/JJ	.
=35	=35	=35	=35	=35	=35	=35	=35	=35	=35	=35	=35	=35	=35	=35	=35	=35	=35	=35	=35	=35	=35	=35
4FF/	.	.	4ff\	.	4aa\	.	4FF/	-i	.	4c\	-i	.	4f\	-i	.	4a\	-i	.	4A/	.	4c/	.
4r	.	.	4r	.	4r	.	4r	.	.	4r	.	.	4r	.	.	4r	.	.	4r	.	4r	.
!	!	!	!	!	!LO:TX:a:t=P:problem:pojedyncza kreska taktowa	!	!	!	!	!	!	!	!	!	!	!	!	!	!LO:TX:a:t=P:problem:podwójna kreska taktowa z obustronną repetycją	!	!LO:TX:a:t=P:problem:podwójna kreska taktowa z obustronną repetycją	!
2r	.	.	2r	.	2rg	.	2r	.	.	2r	.	.	2r	.	.	2rf	.	.	2ra	.	2ra	.
!	!	!	!	!	!	!	!	!	!	!	!	!	!	!	!	!	!	!	!	!	!LO:PB:g=original	!
=36||	=36||	=36||	=36||	=36||	=36||	=36||	=36||	=36||	=36||	=36||	=36||	=36||	=36||	=36||	=36||	=36||	=36||	=36||	=36||	=36||	=36||	=36||
*	*	*	*	*	*	*	*	*	*	*	*	*	*	*	*	*M4/4	*	*	*M4/4	*	*M4/4	*
*	*	*	*	*	*	*	*	*	*	*	*	*	*	*	*	*met(C.)	*	*	*met(c)	*	*met(c)	*
!LO:TX:b:t=Qui habitare	!	!	!LO:TX:b:t=Qui habitare facit	!	!LO:TX:b:t=Qui habitare	!	!	!	!	!	!	!	!	!	!	!	!	!	!	!	!	!
!LO:TX:a:t=Allegro solo	!	!	!	!	!LO:TX:a:t=Allegro Solo&colon;	!	!LO:TX:a:t=23	!	!	!	!	!	!LO:TX:a:t=Allegro	!	!	!	!	!	!LO:TX:a:B:t=Qui habitare \nalto Solo \nTacet	!	!LO:TX:a:B:t=Qui habitare\nCanto solo Tacet	!
4C/	.	.	16r	.	16r	.	00r	.	.	00r	.	.	00r	.	.	00r	.	.	1ryy	.	1ryy	.
!	!	!	!LO:TX:a:t=Allegro Solo	!	!	!	!	!	!	!	!	!	!	!	!	!	!	!	!	!	!	!
.	.	.	16cc\LL	.	16cc\LL	.	.	.	.	.	.	.	.	.	.	.	.	.	.	.	.	.
.	.	.	16cc\	.	16cc\	.	.	.	.	.	.	.	.	.	.	.	.	.	.	.	.	.
.	.	.	16cc\JJ	.	16cc\JJ	.	.	.	.	.	.	.	.	.	.	.	.	.	.	.	.	.
4E\	.	.	16g\LL	.	16g\LL	.	.	.	.	.	.	.	.	.	.	.	.	.	.	.	.	.
.	.	.	16cc\	.	16cc\	.	.	.	.	.	.	.	.	.	.	.	.	.	.	.	.	.
.	.	.	16cc\	.	16cc\	.	.	.	.	.	.	.	.	.	.	.	.	.	.	.	.	.
.	.	.	16cc\JJ	.	16cc\JJ	.	.	.	.	.	.	.	.	.	.	.	.	.	.	.	.	.
!	!	!	!	!	!LO:LB:g=original	!	!	!	!	!	!	!	!	!	!	!	!	!	!	!	!	!
4F\	.	.	16a\LL	.	16a\LL	.	.	.	.	.	.	.	.	.	.	.	.	.	.	.	.	.
.	.	.	16cc\	.	16cc\	.	.	.	.	.	.	.	.	.	.	.	.	.	.	.	.	.
.	.	.	16cc\	.	16cc\	.	.	.	.	.	.	.	.	.	.	.	.	.	.	.	.	.
.	.	.	16cc\JJ	.	16cc\JJ	.	.	.	.	.	.	.	.	.	.	.	.	.	.	.	.	.
4E\	6	.	16g\LL	.	16g\LL	.	.	.	.	.	.	.	.	.	.	.	.	.	.	.	.	.
.	.	.	16cc\	.	16cc\	.	.	.	.	.	.	.	.	.	.	.	.	.	.	.	.	.
.	.	.	16cc\	.	16cc\	.	.	.	.	.	.	.	.	.	.	.	.	.	.	.	.	.
.	.	.	16cc\JJ	.	16cc\JJ	.	.	.	.	.	.	.	.	.	.	.	.	.	.	.	.	.
=37	=37	=37	=37	=37	=37	=37	=37	=37	=37	=37	=37	=37	=37	=37	=37	=37	=37	=37	=37	=37	=37	=37
!	!	!	!LO:TX:a:t=P:problem:mixed beam	!	!	!	!	!	!	!	!	!	!	!	!	!	!	!	!	!	!	!
4D/	.	.	16a/LL	.	16a\LL	.	.	.	.	.	.	.	.	.	.	.	.	.	1ryy	.	1ryy	.
.	.	.	16ff\	.	16ff\	.	.	.	.	.	.	.	.	.	.	.	.	.	.	.	.	.
.	.	.	16ff\	.	16ff\	.	.	.	.	.	.	.	.	.	.	.	.	.	.	.	.	.
.	.	.	16ff\JJ	.	16ff\JJ	.	.	.	.	.	.	.	.	.	.	.	.	.	.	.	.	.
4G\	.	.	16bn\LL	.	16bn\LL	.	.	.	.	.	.	.	.	.	.	.	.	.	.	.	.	.
.	.	.	16dd\	.	16dd\	.	.	.	.	.	.	.	.	.	.	.	.	.	.	.	.	.
.	.	.	16dd\	.	16dd\	.	.	.	.	.	.	.	.	.	.	.	.	.	.	.	.	.
.	.	.	16dd\JJ	.	16dd\JJ	.	.	.	.	.	.	.	.	.	.	.	.	.	.	.	.	.
4C/	.	.	16ee\LL	.	16ee\LL	.	.	.	.	.	.	.	.	.	.	.	.	.	.	.	.	.
.	.	.	16gg\	.	16gg\	.	.	.	.	.	.	.	.	.	.	.	.	.	.	.	.	.
.	.	.	16gg\	.	16gg\	.	.	.	.	.	.	.	.	.	.	.	.	.	.	.	.	.
.	.	.	16gg\JJ	.	16gg\JJ	.	.	.	.	.	.	.	.	.	.	.	.	.	.	.	.	.
4E\	6	.	16cc\LL	.	16cc\LL	.	.	.	.	.	.	.	.	.	.	.	.	.	.	.	.	.
.	.	.	16ee\	.	16ee\	.	.	.	.	.	.	.	.	.	.	.	.	.	.	.	.	.
.	.	.	16ee\	.	16ee\	.	.	.	.	.	.	.	.	.	.	.	.	.	.	.	.	.
.	.	.	16ee\JJ	.	16ee\JJ	.	.	.	.	.	.	.	.	.	.	.	.	.	.	.	.	.
!	!	!	!LO:LB:g=original	!	!	!	!	!	!	!	!	!	!	!	!	!	!	!	!	!	!	!
=38	=38	=38	=38	=38	=38	=38	=38	=38	=38	=38	=38	=38	=38	=38	=38	=38	=38	=38	=38	=38	=38	=38
!	!	!	!LO:TX:a:t=P:problem:mixed beam	!	!LO:TX:a:t=P:problem:mixed beam	!	!	!	!	!	!	!	!	!	!	!	!	!	!	!	!	!
4F\	.	.	16a/LL	.	16a/LL	.	.	.	.	.	.	.	.	.	.	.	.	.	1ryy	.	1ryy	.
.	.	.	16aa\	.	16aa\	.	.	.	.	.	.	.	.	.	.	.	.	.	.	.	.	.
.	.	.	16aa\	.	16aa\	.	.	.	.	.	.	.	.	.	.	.	.	.	.	.	.	.
.	.	.	16aa\JJ	.	16aa\JJ	.	.	.	.	.	.	.	.	.	.	.	.	.	.	.	.	.
4D/	.	.	16dd\LL	.	16dd\LL	.	.	.	.	.	.	.	.	.	.	.	.	.	.	.	.	.
.	.	.	16ff\	.	16ff\	.	.	.	.	.	.	.	.	.	.	.	.	.	.	.	.	.
.	.	.	16ff\	.	16ff\	.	.	.	.	.	.	.	.	.	.	.	.	.	.	.	.	.
.	.	.	16ff\JJ	.	16ff\JJ	.	.	.	.	.	.	.	.	.	.	.	.	.	.	.	.	.
4G\	n	.	16bn\LL	.	16bn\LL	.	.	.	.	.	.	.	.	.	.	.	.	.	.	.	.	.
.	.	.	16dd\	.	16dd\	.	.	.	.	.	.	.	.	.	.	.	.	.	.	.	.	.
.	.	.	16dd\	.	16dd\	.	.	.	.	.	.	.	.	.	.	.	.	.	.	.	.	.
.	.	.	16dd\JJ	.	16dd\JJ	.	.	.	.	.	.	.	.	.	.	.	.	.	.	.	.	.
4F\	.	.	16f/LL	.	16f/LL	.	.	.	.	.	.	.	.	.	.	.	.	.	.	.	.	.
.	.	.	16a/	.	16a/	.	.	.	.	.	.	.	.	.	.	.	.	.	.	.	.	.
.	.	.	16a/	.	16a/	.	.	.	.	.	.	.	.	.	.	.	.	.	.	.	.	.
.	.	.	16a/JJ	.	16a/JJ	.	.	.	.	.	.	.	.	.	.	.	.	.	.	.	.	.
=39	=39	=39	=39	=39	=39	=39	=39	=39	=39	=39	=39	=39	=39	=39	=39	=39	=39	=39	=39	=39	=39	=39
4G\	7 n	.	16d/LL	.	16d/LL	.	.	.	.	.	.	.	.	.	.	.	.	.	1ryy	.	1ryy	.
.	.	.	16f/	.	16f/	.	.	.	.	.	.	.	.	.	.	.	.	.	.	.	.	.
.	.	.	16f/	.	16f/	.	.	.	.	.	.	.	.	.	.	.	.	.	.	.	.	.
.	.	.	16f/JJ	.	16f/JJ	.	.	.	.	.	.	.	.	.	.	.	.	.	.	.	.	.
8r	.	.	16Bn/LL	.	16Bn/LL	.	.	.	.	.	.	.	.	.	.	.	.	.	.	.	.	.
.	.	.	16d/	.	16d/	.	.	.	.	.	.	.	.	.	.	.	.	.	.	.	.	.
8GG/	.	.	16d/	.	16d/	.	.	.	.	.	.	.	.	.	.	.	.	.	.	.	.	.
.	.	.	16d/JJ	.	16d/JJ	.	.	.	.	.	.	.	.	.	.	.	.	.	.	.	.	.
!	!	!	!	!	!LO:TX:a:t=P:problem:niewyraźne źródło, nuta prawdopodobna	!	!	!	!	!	!	!	!	!	!	!	!	!	!	!	!	!
!	!	!	!	!	!LO:TX:b:t=Verte	!	!	!	!	!	!	!	!	!	!	!	!	!	!	!	!	!
8G\L	n	.	4G/	.	4G/yy	.	.	.	.	.	.	.	.	.	.	.	.	.	.	.	.	.
8F\	.	.	.	.	.	.	.	.	.	.	.	.	.	.	.	.	.	.	.	.	.	.
!	!	!	!	!	!LO:PB:g=original	!	!	!	!	!	!	!	!	!	!	!	!	!	!	!	!	!
8E\	6	.	16r	.	16r	.	.	.	.	.	.	.	.	.	.	.	.	.	.	.	.	.
.	.	.	16gg\LL	.	16gg\LL	.	.	.	.	.	.	.	.	.	.	.	.	.	.	.	.	.
8C\J	.	.	16gg\	.	16gg\	.	.	.	.	.	.	.	.	.	.	.	.	.	.	.	.	.
.	.	.	16gg\JJ	.	16gg\JJ	.	.	.	.	.	.	.	.	.	.	.	.	.	.	.	.	.
=40	=40	=40	=40	=40	=40	=40	=40	=40	=40	=40	=40	=40	=40-	=40	=40	=40	=40	=40	=40	=40	=40	=40
!LO:TX:a:t=P:problem:mixed beam	!	!	!	!	!	!	!	!	!	!	!	!	!	!	!	!	!	!	!	!	!	!
8F\L	.	.	16a\LL	.	16a\LL	.	00r	.	.	00r	.	.	2r	.	.	00r	.	.	1ryy	.	1ryy	.
.	.	.	16cc\	.	16cc\	.	.	.	.	.	.	.	.	.	.	.	.	.	.	.	.	.
8D\	7	.	16cc\	.	16cc\	.	.	.	.	.	.	.	.	.	.	.	.	.	.	.	.	.
.	.	.	16cc\JJ	.	16cc\JJ	.	.	.	.	.	.	.	.	.	.	.	.	.	.	.	.	.
8G\	.	.	16d/LL	.	16d/LL	.	.	.	.	.	.	.	.	.	.	.	.	.	.	.	.	.
.	.	.	16bn/	.	16bn/	.	.	.	.	.	.	.	.	.	.	.	.	.	.	.	.	.
8GG/J	n	.	16b/	.	16b/	.	.	.	.	.	.	.	.	.	.	.	.	.	.	.	.	.
.	.	.	16b/JJ	.	16b/JJ	.	.	.	.	.	.	.	.	.	.	.	.	.	.	.	.	.
!	!	!	!	!	!LO:TX:b:B:t=A	!	!	!	!	!	!	!	!	!	!	!	!	!	!	!	!	!
!	!	!	!LO:TX:a:t=P:problem:mixed beam	!	!LO:TX:a:t=P:problem:mixed beam	!	!	!	!	!	!	!	!	!	!	!	!	!	!	!	!	!
4C/	.	.	8cc\L	.	8cc\L	.	.	.	.	.	.	.	8r	.	.	.	.	.	.	.	.	.
.	.	.	8c/J	.	8c/J	.	.	.	.	.	.	.	8g\	Qui	.	.	.	.	.	.	.	.
4BBn/	6	.	4r	.	4r	.	.	.	.	.	.	.	(16g\LL	ha-	.	.	.	.	.	.	.	.
.	.	.	.	.	.	.	.	.	.	.	.	.	16a\JJ)	.	.	.	.	.	.	.	.	.
.	5	.	.	.	.	.	.	.	.	.	.	.	(16g\LL	-bi-	.	.	.	.	.	.	.	.
.	.	.	.	.	.	.	.	.	.	.	.	.	16f\JJ)	.	.	.	.	.	.	.	.	.
!LO:LB:g=original	!	!	!LO:LB:g=original	!	!	!	!	!	!	!	!	!	!LO:LB:g=original	!	!	!	!	!	!	!	!	!
=41	=41	=41	=41	=41	=41	=41	=41	=41	=41	=41	=41	=41	=41	=41	=41	=41	=41	=41	=41	=41	=41	=41
4C/	.	.	16r	.	16r	.	.	.	.	.	.	.	8e\	-ta-	.	.	.	.	1ryy	.	1ryy	.
.	.	.	16gg\LL	.	16gg\LL	.	.	.	.	.	.	.	.	.	.	.	.	.	.	.	.	.
.	.	.	16gg\	.	16gg\	.	.	.	.	.	.	.	8c/	-re	.	.	.	.	.	.	.	.
.	.	.	16gg\JJ	.	16gg\JJ	.	.	.	.	.	.	.	.	.	.	.	.	.	.	.	.	.
4E\	6	.	16cc\LL	.	16cc\LL	.	.	.	.	.	.	.	4r	.	.	.	.	.	.	.	.	.
.	.	.	16cc\	.	16cc\	.	.	.	.	.	.	.	.	.	.	.	.	.	.	.	.	.
.	.	.	16ee\	.	16ee\	.	.	.	.	.	.	.	.	.	.	.	.	.	.	.	.	.
.	.	.	16ee\JJ	.	16ee\JJ	.	.	.	.	.	.	.	.	.	.	.	.	.	.	.	.	.
!	!	!	!LO:TX:a:t=P:problem:mixed beam	!	!LO:TX:a:t=P:problem:mixed beam	!	!	!	!	!	!	!	!	!	!	!	!	!	!	!	!	!
4F\	.	.	16a/LL	.	16a/LL	.	.	.	.	.	.	.	2r	.	.	.	.	.	.	.	.	.
.	.	.	16aa\	.	16aa\	.	.	.	.	.	.	.	.	.	.	.	.	.	.	.	.	.
.	.	.	16aa\	.	16aa\	.	.	.	.	.	.	.	.	.	.	.	.	.	.	.	.	.
.	.	.	16aa\JJ	.	16aa\JJ	.	.	.	.	.	.	.	.	.	.	.	.	.	.	.	.	.
4D\	.	.	16dd\LL	.	16dd\LL	.	.	.	.	.	.	.	.	.	.	.	.	.	.	.	.	.
.	.	.	16ff\	.	16ff\	.	.	.	.	.	.	.	.	.	.	.	.	.	.	.	.	.
.	.	.	16ff\	.	16ff\	.	.	.	.	.	.	.	.	.	.	.	.	.	.	.	.	.
.	.	.	16ff\JJ	.	16ff\JJ	.	.	.	.	.	.	.	.	.	.	.	.	.	.	.	.	.
=42	=42	=42	=42	=42	=42	=42	=42	=42	=42	=42	=42	=42	=42	=42	=42	=42	=42	=42	=42	=42	=42	=42
!	!	!	!	!	!LO:TX:b:B:t=A	!	!	!	!	!	!	!	!	!	!	!	!	!	!	!	!	!
4G\	n	.	8bn/L	.	8bn/L	.	.	.	.	.	.	.	8r	.	.	.	.	.	1ryy	.	1ryy	.
.	.	.	8g/J	.	8g/J	.	.	.	.	.	.	.	8g\	qui	.	.	.	.	.	.	.	.
4BBn/	6	.	4r	.	4r	.	.	.	.	.	.	.	(16g\LL	ha-	.	.	.	.	.	.	.	.
.	.	.	.	.	.	.	.	.	.	.	.	.	16a\JJ)	.	.	.	.	.	.	.	.	.
.	.	.	.	.	.	.	.	.	.	.	.	.	(16g\LL	-bi-	.	.	.	.	.	.	.	.
.	5	.	.	.	.	.	.	.	.	.	.	.	16f\JJ)	.	.	.	.	.	.	.	.	.
4C/	.	.	2r	.	2rg	.	.	.	.	.	.	.	8e\	-ta-	.	.	.	.	.	.	.	.
.	.	.	.	.	.	.	.	.	.	.	.	.	8c\	-re	.	.	.	.	.	.	.	.
4E\	6	.	.	.	.	.	.	.	.	.	.	.	(16cc\LL	fa-	.	.	.	.	.	.	.	.
.	5	.	.	.	.	.	.	.	.	.	.	.	16b-\JJ)	.	.	.	.	.	.	.	.	.
.	.	.	.	.	.	.	.	.	.	.	.	.	(16a\LL	-cit	.	.	.	.	.	.	.	.
.	.	.	.	.	.	.	.	.	.	.	.	.	16g\JJ)	.	.	.	.	.	.	.	.	.
=43	=43	=43	=43	=43	=43	=43	=43	=43	=43	=43	=43	=43	=43	=43	=43	=43	=43	=43	=43	=43	=43	=43
4F\	.	.	2r	.	2rg	.	.	.	.	.	.	.	(16a\LL	ſte-	.	.	.	.	1ryy	.	1ryy	.
.	.	.	.	.	.	.	.	.	.	.	.	.	16g\JJ)	.	.	.	.	.	.	.	.	.
.	.	.	.	.	.	.	.	.	.	.	.	.	(16f\LL	-ri-	.	.	.	.	.	.	.	.
.	.	.	.	.	.	.	.	.	.	.	.	.	16e\JJ)	.	.	.	.	.	.	.	.	.
4FF/	6	.	.	.	.	.	.	.	.	.	.	.	(16f\LL	-lem	.	.	.	.	.	.	.	.
.	.	.	.	.	.	.	.	.	.	.	.	.	16e\JJ)	.	.	.	.	.	.	.	.	.
.	.	.	.	.	.	.	.	.	.	.	.	.	(16d\LL	in	.	.	.	.	.	.	.	.
.	5	.	.	.	.	.	.	.	.	.	.	.	16c\JJ)	.	.	.	.	.	.	.	.	.
4GG/	.	.	16r	.	16r	.	.	.	.	.	.	.	8Bn/	do-	.	.	.	.	.	.	.	.
.	.	.	16gg\LL	.	16gg\LL	.	.	.	.	.	.	.	.	.	.	.	.	.	.	.	.	.
.	.	.	16gg\	.	16gg\	.	.	.	.	.	.	.	8G/	-mo	.	.	.	.	.	.	.	.
.	.	.	16gg\JJ	.	16gg\JJ	.	.	.	.	.	.	.	.	.	.	.	.	.	.	.	.	.
4BBn/	6	.	16dd\LL	.	16dd\LL	.	.	.	.	.	.	.	4r	.	.	.	.	.	.	.	.	.
.	.	.	16gg\	.	16gg\	.	.	.	.	.	.	.	.	.	.	.	.	.	.	.	.	.
.	.	.	16gg\	.	16gg\	.	.	.	.	.	.	.	.	.	.	.	.	.	.	.	.	.
.	.	.	16gg\JJ	.	16gg\JJ	.	.	.	.	.	.	.	.	.	.	.	.	.	.	.	.	.
!	!	!	!	!	!LO:LB:g=original	!	!	!	!	!	!	!	!	!	!	!	!	!	!	!	!	!
=44	=44	=44	=44	=44	=44	=44	=44	=44	=44	=44	=44	=44	=44	=44	=44	=44	=44	=44	=44	=44	=44	=44
4C/	.	.	16cc\LL	.	16cc\LL	.	00r	.	.	00r	.	.	4r	.	.	00r	.	.	1ryy	.	1ryy	.
.	.	.	16ee\	.	16ee\	.	.	.	.	.	.	.	.	.	.	.	.	.	.	.	.	.
.	.	.	16ee\	.	16ee\	.	.	.	.	.	.	.	.	.	.	.	.	.	.	.	.	.
.	.	.	16ee\JJ	.	16ee\JJ	.	.	.	.	.	.	.	.	.	.	.	.	.	.	.	.	.
4E\	6	.	16g\LL	.	16g\LL	.	.	.	.	.	.	.	8g\	Ma-	.	.	.	.	.	.	.	.
.	.	.	16cc\	.	16cc\	.	.	.	.	.	.	.	.	.	.	.	.	.	.	.	.	.
.	.	.	16cc\	.	16cc\	.	.	.	.	.	.	.	8c/	-trem	.	.	.	.	.	.	.	.
.	.	.	16cc\JJ	.	16cc\JJ	.	.	.	.	.	.	.	.	.	.	.	.	.	.	.	.	.
4F\	.	.	4c/	.	4c/	.	.	.	.	.	.	.	8.a\	fi-	.	.	.	.	.	.	.	.
.	.	.	.	.	.	.	.	.	.	.	.	.	16g\	-li-	.	.	.	.	.	.	.	.
4D/	.	.	4r	.	4r	.	.	.	.	.	.	.	(16f\LL	-o-	.	.	.	.	.	.	.	.
.	.	.	.	.	.	.	.	.	.	.	.	.	16g\JJ)	.	.	.	.	.	.	.	.	.
!	!	!	!	!	!	!	!	!	!	!	!	!	!LO:LB:g=original	!	!	!	!	!	!	!	!	!
.	.	.	.	.	.	.	.	.	.	.	.	.	16f\	-rum	.	.	.	.	.	.	.	.
!	!	!	!	!	!	!	!	!	!	!	!	!	!LO:SIC:v:l:s=lae-	!	!	!	!	!	!	!	!	!
.	.	.	.	.	.	.	.	.	.	.	.	.	16e\	le-	.	.	.	.	.	.	.	.
=45	=45	=45	=45	=45	=45	=45	=45	=45	=45	=45	=45	=45	=45	=45	=45	=45	=45	=45	=45	=45	=45	=45
4G\	n	.	2r	.	2rg	.	.	.	.	.	.	.	8d\	-tan-	.	.	.	.	1ryy	.	1ryy	.
.	.	.	.	.	.	.	.	.	.	.	.	.	8d\	-tem	.	.	.	.	.	.	.	.
4E\	6	.	.	.	.	.	.	.	.	.	.	.	8r	.	.	.	.	.	.	.	.	.
.	.	.	.	.	.	.	.	.	.	.	.	.	8g\	lae-	.	.	.	.	.	.	.	.
!	!	!	!LO:LB:g=original	!	!	!	!	!	!	!	!	!	!	!	!	!	!	!	!	!	!	!
*	*	*	*	*	*	*	*	*	*	*	*	*	*2\right	*	*	*	*	*	*	*	*	*
4BBn/	6	.	16r	.	16r	.	.	.	.	.	.	.	2gT\	-tan-	.	.	.	.	.	.	.	.
.	.	.	16dd\LL	.	16dd\LL	.	.	.	.	.	.	.	.	.	.	.	.	.	.	.	.	.
.	.	.	16dd\	.	16dd\	.	.	.	.	.	.	.	.	.	.	.	.	.	.	.	.	.
.	.	.	16dd\JJ	.	16dd\JJ	.	.	.	.	.	.	.	.	.	.	.	.	.	.	.	.	.
4C/	.	.	16g\LL	.	16g\LL	.	.	.	.	.	.	.	.	.	.	.	.	.	.	.	.	.
.	.	.	16ee\	.	16ee\	.	.	.	.	.	.	.	.	.	.	.	.	.	.	.	.	.
.	.	.	16ee\	.	16ee\	.	.	.	.	.	.	.	.	.	.	.	.	.	.	.	.	.
.	.	.	16ee\JJ	.	16ee\JJ	.	.	.	.	.	.	.	.	.	.	.	.	.	.	.	.	.
=46	=46	=46	=46	=46	=46	=46	=46	=46	=46	=46	=46	=46	=46	=46	=46	=46	=46	=46	=46	=46	=46	=46
4BBn/	6	.	16g\LL	.	16g\LL	.	.	.	.	.	.	.	4.g\	-tem	.	.	.	.	1ryy	.	1ryy	.
.	.	.	16dd\	.	16dd\	.	.	.	.	.	.	.	.	.	.	.	.	.	.	.	.	.
.	.	.	16dd\	.	16dd\	.	.	.	.	.	.	.	.	.	.	.	.	.	.	.	.	.
.	.	.	16dd\JJ	.	16dd\JJ	.	.	.	.	.	.	.	.	.	.	.	.	.	.	.	.	.
4C/	.	.	16g\LL	.	16g\LL	.	.	.	.	.	.	.	.	.	.	.	.	.	.	.	.	.
.	.	.	16ee\	.	16ee\	.	.	.	.	.	.	.	.	.	.	.	.	.	.	.	.	.
.	.	.	16ee\	.	16ee\	.	.	.	.	.	.	.	8g\	lae-	.	.	.	.	.	.	.	.
.	.	.	16ee\JJ	.	16ee\JJ	.	.	.	.	.	.	.	.	.	.	.	.	.	.	.	.	.
4BBn/	6	.	16g/LL	.	16g/LL	.	.	.	.	.	.	.	2gT\	-tan-	.	.	.	.	.	.	.	.
.	.	.	16d/	.	16d/	.	.	.	.	.	.	.	.	.	.	.	.	.	.	.	.	.
.	.	.	16d/	.	16d/	.	.	.	.	.	.	.	.	.	.	.	.	.	.	.	.	.
.	.	.	16d/JJ	.	16d/JJ	.	.	.	.	.	.	.	.	.	.	.	.	.	.	.	.	.
4C/	.	.	16G/LL	.	16G/LL	.	.	.	.	.	.	.	.	.	.	.	.	.	.	.	.	.
.	.	.	16e/	.	16e/	.	.	.	.	.	.	.	.	.	.	.	.	.	.	.	.	.
.	.	.	16e/	.	16e/	.	.	.	.	.	.	.	.	.	.	.	.	.	.	.	.	.
.	.	.	16e/JJ	.	16e/JJ	.	.	.	.	.	.	.	.	.	.	.	.	.	.	.	.	.
=47	=47	=47	=47	=47	=47	=47	=47	=47	=47	=47	=47	=47	=47	=47	=47	=47	=47	=47	=47	=47	=47	=47
4BBn/	6	.	16G/LL	.	16G/LL	.	.	.	.	.	.	.	4.g\	-tem	.	.	.	.	1ryy	.	1ryy	.
.	.	.	16d/	.	16d/	.	.	.	.	.	.	.	.	.	.	.	.	.	.	.	.	.
.	.	.	16d/	.	16d/	.	.	.	.	.	.	.	.	.	.	.	.	.	.	.	.	.
.	.	.	16d/JJ	.	16d/JJ	.	.	.	.	.	.	.	.	.	.	.	.	.	.	.	.	.
4C/	.	.	16G/LL	.	16G/LL	.	.	.	.	.	.	.	.	.	.	.	.	.	.	.	.	.
.	.	.	16e/	.	16e/	.	.	.	.	.	.	.	.	.	.	.	.	.	.	.	.	.
.	.	.	16e/	.	16e/	.	.	.	.	.	.	.	8g\	lae-	.	.	.	.	.	.	.	.
.	.	.	16e/JJ	.	16e/JJ	.	.	.	.	.	.	.	.	.	.	.	.	.	.	.	.	.
4F\	.	.	4c/	.	4c/	.	.	.	.	.	.	.	16a\LL	-tan-	.	.	.	.	.	.	.	.
.	.	.	.	.	.	.	.	.	.	.	.	.	16g\	.	.	.	.	.	.	.	.	.
.	.	.	.	.	.	.	.	.	.	.	.	.	16a\	.	.	.	.	.	.	.	.	.
.	.	.	.	.	.	.	.	.	.	.	.	.	16g\JJ	.	.	.	.	.	.	.	.	.
4Bn\	7	.	16r	.	16r	.	.	.	.	.	.	.	16f\LL	.	.	.	.	.	.	.	.	.
.	.	.	16dd\LL	.	16dd\LL	.	.	.	.	.	.	.	16d\	.	.	.	.	.	.	.	.	.
.	.	.	16dd\	.	16dd\	.	.	.	.	.	.	.	16e\	.	.	.	.	.	.	.	.	.
.	.	.	16dd\JJ	.	16dd\JJ	.	.	.	.	.	.	.	16f\JJ	.	.	.	.	.	.	.	.	.
!	!	!	!	!	!LO:LB:g=original	!	!	!	!	!	!	!	!	!	!	!	!	!	!	!	!	!
=48	=48	=48	=48	=48	=48	=48	=48	=48	=48	=48	=48	=48	=48	=48	=48	=48	=48	=48	=48	=48	=48	=48
4E\	7	.	4d/	.	4d/	.	00r	.	.	00r	.	.	16g\LL	.	.	00r	.	.	1ryy	.	1ryy	.
.	.	.	.	.	.	.	.	.	.	.	.	.	16f\	.	.	.	.	.	.	.	.	.
.	.	.	.	.	.	.	.	.	.	.	.	.	16g\	.	.	.	.	.	.	.	.	.
.	.	.	.	.	.	.	.	.	.	.	.	.	16f\JJ	.	.	.	.	.	.	.	.	.
4A\	7	.	16r	.	16r	.	.	.	.	.	.	.	16e\LL	.	.	.	.	.	.	.	.	.
.	.	.	16cc\LL	.	16cc\LL	.	.	.	.	.	.	.	16c\	.	.	.	.	.	.	.	.	.
.	.	.	16cc\	.	16cc\	.	.	.	.	.	.	.	16d\	.	.	.	.	.	.	.	.	.
.	.	.	16cc\JJ	.	16cc\JJ	.	.	.	.	.	.	.	16e\JJ	.	.	.	.	.	.	.	.	.
4D/	7	.	4c/	.	4c/	.	.	.	.	.	.	.	16f\LL	.	.	.	.	.	.	.	.	.
.	.	.	.	.	.	.	.	.	.	.	.	.	16e\	.	.	.	.	.	.	.	.	.
.	.	.	.	.	.	.	.	.	.	.	.	.	16f\	.	.	.	.	.	.	.	.	.
.	.	.	.	.	.	.	.	.	.	.	.	.	16e\JJ	.	.	.	.	.	.	.	.	.
4G\	7 n	.	16r	.	16r	.	.	.	.	.	.	.	16d\LL	.	.	.	.	.	.	.	.	.
.	.	.	16bn\LL	.	16bn/LL	.	.	.	.	.	.	.	16Bn\	.	.	.	.	.	.	.	.	.
.	.	.	16b\	.	16b/	.	.	.	.	.	.	.	16c\	.	.	.	.	.	.	.	.	.
.	.	.	16b\JJ	.	16b/JJ	.	.	.	.	.	.	.	16d\JJ	.	.	.	.	.	.	.	.	.
!	!	!	!LO:PB:g=original	!	!	!	!	!	!	!	!	!	!LO:LB:g=original	!	!	!	!	!	!	!	!	!
=49	=49	=49	=49	=49	=49	=49	=49	=49	=49	=49	=49	=49	=49	=49	=49	=49	=49	=49	=49	=49	=49	=49
4C/	.	.	4G/	.	4G/	.	.	.	.	.	.	.	8e\	.	.	.	.	.	1ryy	.	1ryy	.
.	.	.	.	.	.	.	.	.	.	.	.	.	16e\	-tem	.	.	.	.	.	.	.	.
.	.	.	.	.	.	.	.	.	.	.	.	.	16d\	lae-	.	.	.	.	.	.	.	.
4GG/	4	.	16r	.	16r	.	.	.	.	.	.	.	4dT\	-tan-	.	.	.	.	.	.	.	.
.	.	.	16gg\LL	.	16gg\LL	.	.	.	.	.	.	.	.	.	.	.	.	.	.	.	.	.
.	3	.	16gg\	.	16gg\	.	.	.	.	.	.	.	.	.	.	.	.	.	.	.	.	.
.	.	.	16gg\JJ	.	16gg\JJ	.	.	.	.	.	.	.	.	.	.	.	.	.	.	.	.	.
4C/	.	.	16ee\LL	.	16ee\LL	.	.	.	.	.	.	.	4c/	-tem	.	.	.	.	.	.	.	.
.	.	.	16gg\	.	16gg\	.	.	.	.	.	.	.	.	.	.	.	.	.	.	.	.	.
.	.	.	16gg\	.	16gg\	.	.	.	.	.	.	.	.	.	.	.	.	.	.	.	.	.
.	.	.	16gg\JJ	.	16gg\JJ	.	.	.	.	.	.	.	.	.	.	.	.	.	.	.	.	.
!	!	!	!LO:TX:a:t=P:problem:mixed beam	!	!LO:TX:a:t=P:problem:mixed beam	!	!	!	!	!	!	!	!	!	!	!	!	!	!	!	!	!
4E\	6	.	8cc\L	.	8cc\L	.	.	.	.	.	.	.	8r	.	.	.	.	.	.	.	.	.
!	!	!	!	!	!	!	!	!	!	!	!	!	!	!	!LO:DY:a:t=Pia	!	!	!	!	!	!	!
.	.	.	8c/J	.	8c/J	.	.	.	.	.	.	.	8g\	lae-	p	.	.	.	.	.	.	.
=50	=50	=50	=50	=50	=50	=50	=50	=50	=50	=50	=50	=50	=50	=50	=50	=50	=50	=50	=50	=50	=50	=50
4BBn/	.	.	16r	.	16r	.	.	.	.	.	.	.	2gT\	-tan-	.	.	.	.	1ryy	.	1ryy	.
!	!	!	!	!LO:DY:a:t=Piano	!	!LO:DY:t=Piano&colon;	!	!	!	!	!	!	!	!	!	!	!	!	!	!	!	!
.	.	.	16dd\LL	p	16dd\LL	p	.	.	.	.	.	.	.	.	.	.	.	.	.	.	.	.
.	.	.	16dd\	.	16dd\	.	.	.	.	.	.	.	.	.	.	.	.	.	.	.	.	.
.	.	.	16dd\JJ	.	16dd\JJ	.	.	.	.	.	.	.	.	.	.	.	.	.	.	.	.	.
4C/	.	.	16g\LL	.	16g\LL	.	.	.	.	.	.	.	.	.	.	.	.	.	.	.	.	.
.	.	.	16ee\	.	16ee\	.	.	.	.	.	.	.	.	.	.	.	.	.	.	.	.	.
.	.	.	16ee\	.	16ee\	.	.	.	.	.	.	.	.	.	.	.	.	.	.	.	.	.
.	.	.	16ee\JJ	.	16ee\JJ	.	.	.	.	.	.	.	.	.	.	.	.	.	.	.	.	.
4BBn/	.	.	16g\LL	.	16g\LL	.	.	.	.	.	.	.	4.g\	-tem	.	.	.	.	.	.	.	.
.	.	.	16dd\	.	16dd\	.	.	.	.	.	.	.	.	.	.	.	.	.	.	.	.	.
.	.	.	16dd\	.	16dd\	.	.	.	.	.	.	.	.	.	.	.	.	.	.	.	.	.
.	.	.	16dd\JJ	.	16dd\JJ	.	.	.	.	.	.	.	.	.	.	.	.	.	.	.	.	.
4C/	.	.	16g\LL	.	16g\LL	.	.	.	.	.	.	.	.	.	.	.	.	.	.	.	.	.
!	!	!	!LO:TX:a:t=e	!	!	!	!	!	!	!	!	!	!	!	!	!	!	!	!	!	!	!
.	.	.	16ee\	.	16ee\	.	.	.	.	.	.	.	.	.	.	.	.	.	.	.	.	.
!	!	!	!LO:TX:a:t=e	!	!	!	!	!	!	!	!	!	!	!	!	!	!	!	!	!	!	!
.	.	.	16ee\	.	16ee\	.	.	.	.	.	.	.	8g\	lae-	.	.	.	.	.	.	.	.
!	!	!	!LO:TX:a:t=e	!	!	!	!	!	!	!	!	!	!	!	!	!	!	!	!	!	!	!
.	.	.	16ee\JJ	.	16ee\JJ	.	.	.	.	.	.	.	.	.	.	.	.	.	.	.	.	.
=51	=51	=51	=51	=51	=51	=51	=51	=51	=51	=51	=51	=51	=51	=51	=51	=51	=51	=51	=51	=51	=51	=51
4BBn/	.	.	16G/LL	.	16G/LL	.	.	.	.	.	.	.	2gT\	-tan-	.	.	.	.	1ryy	.	1ryy	.
.	.	.	16d/	.	16d/	.	.	.	.	.	.	.	.	.	.	.	.	.	.	.	.	.
.	.	.	16d/	.	16d/	.	.	.	.	.	.	.	.	.	.	.	.	.	.	.	.	.
.	.	.	16d/JJ	.	16d/JJ	.	.	.	.	.	.	.	.	.	.	.	.	.	.	.	.	.
4C/	.	.	16G/LL	.	16G/LL	.	.	.	.	.	.	.	.	.	.	.	.	.	.	.	.	.
.	.	.	16e/	.	16e/	.	.	.	.	.	.	.	.	.	.	.	.	.	.	.	.	.
.	.	.	16e/	.	16e/	.	.	.	.	.	.	.	.	.	.	.	.	.	.	.	.	.
.	.	.	16e/JJ	.	16e/JJ	.	.	.	.	.	.	.	.	.	.	.	.	.	.	.	.	.
!LO:LB:g=original	!	!	!	!	!LO:LB:g=original	!	!	!	!	!	!	!	!	!	!	!	!	!	!	!	!	!
4BBn/	6	.	16G/LL	.	16G/LL	.	.	.	.	.	.	.	4.g\	-tem	.	.	.	.	.	.	.	.
.	.	.	16d/	.	16d/	.	.	.	.	.	.	.	.	.	.	.	.	.	.	.	.	.
.	.	.	16d/	.	16d/	.	.	.	.	.	.	.	.	.	.	.	.	.	.	.	.	.
.	.	.	16d/JJ	.	16d/JJ	.	.	.	.	.	.	.	.	.	.	.	.	.	.	.	.	.
4C/	.	.	16G/LL	.	16G/LL	.	.	.	.	.	.	.	.	.	.	.	.	.	.	.	.	.
.	.	.	16e/	.	16e/	.	.	.	.	.	.	.	.	.	.	.	.	.	.	.	.	.
.	.	.	16e/	.	16e/	.	.	.	.	.	.	.	8g\	lae-	.	.	.	.	.	.	.	.
.	.	.	16e/JJ	.	16e/JJ	.	.	.	.	.	.	.	.	.	.	.	.	.	.	.	.	.
=52	=52	=52	=52	=52	=52	=52	=52	=52	=52	=52	=52	=52	=52	=52	=52	=52	=52	=52	=52	=52	=52	=52
4F\	.	.	4c/	.	4c/	.	00r	.	.	00r	.	.	16a\LL	-tan-	.	00r	.	.	1ryy	.	1ryy	.
.	.	.	.	.	.	.	.	.	.	.	.	.	16g\	.	.	.	.	.	.	.	.	.
.	.	.	.	.	.	.	.	.	.	.	.	.	16a\	.	.	.	.	.	.	.	.	.
.	.	.	.	.	.	.	.	.	.	.	.	.	16g\JJ	.	.	.	.	.	.	.	.	.
!	!	!	!LO:LB:g=original	!	!	!	!	!	!	!	!	!	!	!	!	!	!	!	!	!	!	!
4BBn/	.	.	16r	.	16r	.	.	.	.	.	.	.	16f\LL	.	.	.	.	.	.	.	.	.
.	.	.	16dd\LL	.	16dd\LL	.	.	.	.	.	.	.	16d\	.	.	.	.	.	.	.	.	.
.	.	.	16dd\	.	16dd\	.	.	.	.	.	.	.	16e\	.	.	.	.	.	.	.	.	.
.	.	.	16dd\JJ	.	16dd\JJ	.	.	.	.	.	.	.	16f\JJ	.	.	.	.	.	.	.	.	.
4E\	7	.	4d/	.	4d/	.	.	.	.	.	.	.	16g\LL	.	.	.	.	.	.	.	.	.
.	.	.	.	.	.	.	.	.	.	.	.	.	16f\	.	.	.	.	.	.	.	.	.
.	.	.	.	.	.	.	.	.	.	.	.	.	16g\	.	.	.	.	.	.	.	.	.
.	.	.	.	.	.	.	.	.	.	.	.	.	16f\JJ	.	.	.	.	.	.	.	.	.
4AA/	7	.	16r	.	16r	.	.	.	.	.	.	.	16e\LL	.	.	.	.	.	.	.	.	.
.	.	.	16cc\LL	.	16cc\LL	.	.	.	.	.	.	.	16c\	.	.	.	.	.	.	.	.	.
.	.	.	16cc\	.	16cc\	.	.	.	.	.	.	.	16d\	.	.	.	.	.	.	.	.	.
.	.	.	16cc\JJ	.	16cc\JJ	.	.	.	.	.	.	.	16e\JJ	.	.	.	.	.	.	.	.	.
=53	=53	=53	=53	=53	=53	=53	=53	=53	=53	=53	=53	=53	=53	=53	=53	=53	=53	=53	=53	=53	=53	=53
4D\	7	.	4c/	.	4c/	.	.	.	.	.	.	.	16f\LL	.	.	.	.	.	1ryy	.	1ryy	.
.	.	.	.	.	.	.	.	.	.	.	.	.	16e\	.	.	.	.	.	.	.	.	.
.	.	.	.	.	.	.	.	.	.	.	.	.	16f\	.	.	.	.	.	.	.	.	.
.	.	.	.	.	.	.	.	.	.	.	.	.	16e\JJ	.	.	.	.	.	.	.	.	.
4GG/	7 n	.	16r	.	16r	.	.	.	.	.	.	.	16d\LL	.	.	.	.	.	.	.	.	.
.	.	.	16bn\LL	.	16bn/LL	.	.	.	.	.	.	.	16Bn\	.	.	.	.	.	.	.	.	.
.	.	.	16b\	.	16b/	.	.	.	.	.	.	.	16c\	.	.	.	.	.	.	.	.	.
.	.	.	16b\JJ	.	16b/JJ	.	.	.	.	.	.	.	16d\JJ	.	.	.	.	.	.	.	.	.
!LO:TX:a:t=P:problem:mixed beam	!	!	!	!	!	!	!	!	!	!	!	!	!LO:LB:g=original	!	!	!	!	!	!	!	!	!
8C/L	.	.	4G/	.	4G/	.	.	.	.	.	.	.	8e\	.	.	.	.	.	.	.	.	.
8F\J	6	.	.	.	.	.	.	.	.	.	.	.	16e\	-tem	.	.	.	.	.	.	.	.
.	.	.	.	.	.	.	.	.	.	.	.	.	16d\	lae-	.	.	.	.	.	.	.	.
!LO:TX:a:t=P:problem:mixed beam	!	!	!	!	!	!	!	!	!	!	!	!	!	!	!	!	!	!	!	!	!	!
8G\L	4	.	4r	.	4r	.	.	.	.	.	.	.	4d\	-tan-	.	.	.	.	.	.	.	.
8GG/J	3	.	.	.	.	.	.	.	.	.	.	.	.	.	.	.	.	.	.	.	.	.
=54	=54	=54	=54	=54	=54	=54	=54	=54	=54	=54	=54	=54	=54	=54	=54	=54	=54	=54	=54	=54	=54	=54
!	!	!	!	!LO:DY:t=Forte	!	!	!	!	!	!	!	!	!	!	!	!	!	!	!	!	!	!
4C/	.	.	16r	f	16r	.	.	.	.	.	.	.	4c/	-tem	.	.	.	.	1ryy	.	1ryy	.
!	!	!	!	!	!	!LO:DY:a:t=forte	!	!	!	!	!	!	!	!	!	!	!	!	!	!	!	!
.	.	.	16cc\LL	.	16cc\LL	f	.	.	.	.	.	.	.	.	.	.	.	.	.	.	.	.
.	.	.	16cc\	.	16cc\	.	.	.	.	.	.	.	.	.	.	.	.	.	.	.	.	.
.	.	.	16cc\JJ	.	16cc\JJ	.	.	.	.	.	.	.	.	.	.	.	.	.	.	.	.	.
4E\	6	.	16g\LL	.	16g\LL	.	.	.	.	.	.	.	4r	.	.	.	.	.	.	.	.	.
.	.	.	16cc\	.	16cc\	.	.	.	.	.	.	.	.	.	.	.	.	.	.	.	.	.
.	.	.	16cc\	.	16cc\	.	.	.	.	.	.	.	.	.	.	.	.	.	.	.	.	.
.	.	.	16cc\JJ	.	16cc\JJ	.	.	.	.	.	.	.	.	.	.	.	.	.	.	.	.	.
4F\	.	.	16a\LL	.	16a\LL	.	.	.	.	.	.	.	2r	.	.	.	.	.	.	.	.	.
.	.	.	16cc\	.	16cc\	.	.	.	.	.	.	.	.	.	.	.	.	.	.	.	.	.
.	.	.	16cc\	.	16cc\	.	.	.	.	.	.	.	.	.	.	.	.	.	.	.	.	.
.	.	.	16cc\JJ	.	16cc\JJ	.	.	.	.	.	.	.	.	.	.	.	.	.	.	.	.	.
4E\	6	.	16g\LL	.	16g\LL	.	.	.	.	.	.	.	.	.	.	.	.	.	.	.	.	.
.	.	.	16cc\	.	16cc\	.	.	.	.	.	.	.	.	.	.	.	.	.	.	.	.	.
.	.	.	16cc\	.	16cc\	.	.	.	.	.	.	.	.	.	.	.	.	.	.	.	.	.
.	.	.	16cc\JJ	.	16cc\JJ	.	.	.	.	.	.	.	.	.	.	.	.	.	.	.	.	.
=55	=55	=55	=55	=55	=55	=55	=55	=55	=55	=55	=55	=55	=55-	=55	=55	=55	=55	=55	=55	=55	=55	=55
!	!	!	!	!	!LO:TX:a:t=P:problem:mixed beam	!	!	!	!	!	!	!	!	!	!	!	!	!	!	!	!	!
4D\	7	.	16a\LL	.	16a/LL	.	.	.	.	.	.	.	00r	.	.	.	.	.	1ryy	.	1ryy	.
.	.	.	16ff\	.	16ff\	.	.	.	.	.	.	.	.	.	.	.	.	.	.	.	.	.
.	.	.	16ff\	.	16ff\	.	.	.	.	.	.	.	.	.	.	.	.	.	.	.	.	.
.	.	.	16ff\JJ	.	16ff\JJ	.	.	.	.	.	.	.	.	.	.	.	.	.	.	.	.	.
!	!	!	!	!	!LO:LB:g=original	!	!	!	!	!	!	!	!	!	!	!	!	!	!	!	!	!
4G\	n	.	16bn\LL	.	16bn\LL	.	.	.	.	.	.	.	.	.	.	.	.	.	.	.	.	.
.	.	.	16dd\	.	16dd\	.	.	.	.	.	.	.	.	.	.	.	.	.	.	.	.	.
.	.	.	16dd\	.	16dd\	.	.	.	.	.	.	.	.	.	.	.	.	.	.	.	.	.
.	.	.	16dd\JJ	.	16dd\JJ	.	.	.	.	.	.	.	.	.	.	.	.	.	.	.	.	.
4C/	.	.	16ee\LL	.	16ee\LL	.	.	.	.	.	.	.	.	.	.	.	.	.	.	.	.	.
.	.	.	16gg\	.	16gg\	.	.	.	.	.	.	.	.	.	.	.	.	.	.	.	.	.
.	.	.	16gg\	.	16gg\	.	.	.	.	.	.	.	.	.	.	.	.	.	.	.	.	.
.	.	.	16gg\JJ	.	16gg\JJ	.	.	.	.	.	.	.	.	.	.	.	.	.	.	.	.	.
4E\	6	.	16cc\LL	.	16cc\LL	.	.	.	.	.	.	.	.	.	.	.	.	.	.	.	.	.
.	.	.	16ee\	.	16ee\	.	.	.	.	.	.	.	.	.	.	.	.	.	.	.	.	.
.	.	.	16ee\	.	16ee\	.	.	.	.	.	.	.	.	.	.	.	.	.	.	.	.	.
.	.	.	16ee\JJ	.	16ee\JJ	.	.	.	.	.	.	.	.	.	.	.	.	.	.	.	.	.
!	!	!	!LO:LB:g=original	!	!	!	!	!	!	!	!	!	!	!	!	!	!	!	!	!	!	!
=56	=56	=56	=56	=56	=56	=56	=56	=56	=56	=56	=56	=56	=56	=56	=56	=56	=56	=56	=56	=56	=56	=56
!	!	!	!LO:TX:a:t=P:problem:mixed beam	!	!LO:TX:a:t=P:problem:mixed beam	!	!	!	!	!	!	!	!	!	!	!	!	!	!	!	!	!
4F\	.	.	16a/LL	.	16a/LL	.	0r	.	.	0r	.	.	.	.	.	0r	.	.	1ryy	.	1ryy	.
.	.	.	16aa\	.	16aa\	.	.	.	.	.	.	.	.	.	.	.	.	.	.	.	.	.
.	.	.	16aa\	.	16aa\	.	.	.	.	.	.	.	.	.	.	.	.	.	.	.	.	.
.	.	.	16aa\JJ	.	16aa\JJ	.	.	.	.	.	.	.	.	.	.	.	.	.	.	.	.	.
4D\	.	.	16dd\LL	.	16dd\LL	.	.	.	.	.	.	.	.	.	.	.	.	.	.	.	.	.
.	.	.	16ff\	.	16ff\	.	.	.	.	.	.	.	.	.	.	.	.	.	.	.	.	.
.	.	.	16ff\	.	16ff\	.	.	.	.	.	.	.	.	.	.	.	.	.	.	.	.	.
.	.	.	16ff\JJ	.	16ff\JJ	.	.	.	.	.	.	.	.	.	.	.	.	.	.	.	.	.
4G\	n	.	16bn\LL	.	16bn\LL	.	.	.	.	.	.	.	.	.	.	.	.	.	.	.	.	.
.	.	.	16dd\	.	16dd\	.	.	.	.	.	.	.	.	.	.	.	.	.	.	.	.	.
.	.	.	16dd\	.	16dd\	.	.	.	.	.	.	.	.	.	.	.	.	.	.	.	.	.
.	.	.	16dd\JJ	.	16dd\JJ	.	.	.	.	.	.	.	.	.	.	.	.	.	.	.	.	.
4F\	3	.	16f/LL	.	16f/LL	.	.	.	.	.	.	.	.	.	.	.	.	.	.	.	.	.
.	.	.	16a/	.	16a/	.	.	.	.	.	.	.	.	.	.	.	.	.	.	.	.	.
.	.	.	16a/	.	16a/	.	.	.	.	.	.	.	.	.	.	.	.	.	.	.	.	.
.	.	.	16a/JJ	.	16a/JJ	.	.	.	.	.	.	.	.	.	.	.	.	.	.	.	.	.
=57	=57	=57	=57	=57	=57	=57	=57	=57	=57	=57	=57	=57	=57	=57	=57	=57	=57	=57	=57	=57	=57	=57
4G\	7 n	.	16d/LL	.	16d/LL	.	.	.	.	.	.	.	.	.	.	.	.	.	1ryy	.	1ryy	.
.	.	.	16f/	.	16f/	.	.	.	.	.	.	.	.	.	.	.	.	.	.	.	.	.
.	.	.	16f/	.	16f/	.	.	.	.	.	.	.	.	.	.	.	.	.	.	.	.	.
.	.	.	16f/JJ	.	16f/JJ	.	.	.	.	.	.	.	.	.	.	.	.	.	.	.	.	.
8r	.	.	16Bn/LL	.	16Bn/LL	.	.	.	.	.	.	.	.	.	.	.	.	.	.	.	.	.
.	.	.	16d/	.	16d/	.	.	.	.	.	.	.	.	.	.	.	.	.	.	.	.	.
8GG/	n	.	16d/	.	16d/	.	.	.	.	.	.	.	.	.	.	.	.	.	.	.	.	.
.	.	.	16d/JJ	.	16d/JJ	.	.	.	.	.	.	.	.	.	.	.	.	.	.	.	.	.
8G\L	.	.	4G/	.	4G/	.	.	.	.	.	.	.	.	.	.	.	.	.	.	.	.	.
8F\	.	.	.	.	.	.	.	.	.	.	.	.	.	.	.	.	.	.	.	.	.	.
8E\	6	.	16r	.	16r	.	.	.	.	.	.	.	.	.	.	.	.	.	.	.	.	.
.	.	.	16gg\LL	.	16gg\LL	.	.	.	.	.	.	.	.	.	.	.	.	.	.	.	.	.
8C\J	.	.	16gg\	.	16gg\	.	.	.	.	.	.	.	.	.	.	.	.	.	.	.	.	.
.	.	.	16gg\JJ	.	16gg\JJ	.	.	.	.	.	.	.	.	.	.	.	.	.	.	.	.	.
=58	=58	=58	=58	=58	=58	=58	=58	=58	=58	=58	=58	=58	=58	=58	=58	=58	=58	=58	=58	=58	=58	=58
!LO:TX:a:t=P:problem:mixed beam	!	!	!	!	!	!	!	!	!	!	!	!	!	!	!	!	!	!	!	!	!	!
8F\L	.	.	16a/LL	.	16a/LL	.	1r	.	.	1r	.	.	.	.	.	1r	.	.	1ryy	.	1ryy	.
.	.	.	16cc/	.	16cc/	.	.	.	.	.	.	.	.	.	.	.	.	.	.	.	.	.
8D\	7	.	16cc/	.	16cc/	.	.	.	.	.	.	.	.	.	.	.	.	.	.	.	.	.
.	.	.	16cc/JJ	.	16cc/JJ	.	.	.	.	.	.	.	.	.	.	.	.	.	.	.	.	.
!	!	!	!	!	!LO:LB:g=original	!	!	!	!	!	!	!	!	!	!	!	!	!	!	!	!	!
8G\	.	.	16d/LL	.	16d/LL	.	.	.	.	.	.	.	.	.	.	.	.	.	.	.	.	.
.	.	.	16bn/	.	16bn/	.	.	.	.	.	.	.	.	.	.	.	.	.	.	.	.	.
8GG/J	6 4	.	16b/	.	16b/	.	.	.	.	.	.	.	.	.	.	.	.	.	.	.	.	.
.	5 3	.	16b/JJ	.	16b/JJ	.	.	.	.	.	.	.	.	.	.	.	.	.	.	.	.	.
!	!	!	!LO:TX:a:t=P:problem:mixed beam	!	!LO:TX:a:t=P:problem:mixed beam	!	!	!	!	!	!	!	!	!	!	!	!	!	!	!	!	!
4C/	.	.	8cc\L	.	8cc\L	.	.	.	.	.	.	.	.	.	.	.	.	.	.	.	.	.
.	.	.	8c/J	.	8c/J	.	.	.	.	.	.	.	.	.	.	.	.	.	.	.	.	.
!	!	!	!LO:TX:a:t=P:problem:podwójna kreska z obustronną repetycją	!	!	!	!	!	!	!	!	!	!	!	!	!	!	!	!LO:TX:a:t=P:problem:podwójna kreska taktowa z obustronną repetycją	!	!LO:TX:a:t=P:problem:podwójna kreska taktowa z obustronną repetycją	!
4r	.	.	4r	.	4r	.	.	.	.	.	.	.	.	.	.	.	.	.	.	.	.	.
!	!	!	!	!	!	!	!LO:LB:g=original	!	!	!LO:LB:g=original	!	!	!	!	!	!	!	!	!LO:LB:g=original	!	!	!
=59||	=59||	=59||	=59||	=59||	=59||	=59||	=59||	=59||	=59||	=59||	=59||	=59||	=59||	=59||	=59||	=59||	=59||	=59||	=59||	=59||	=59||	=59||
*M3/2	*	*	*M3/2	*	*M3/2	*	*M3/2	*	*	*M3/2	*	*	*M3/2	*	*	*M3/2	*	*	*M3/2	*	*M3/2	*
*	*	*	*2\right	*	*2\right	*	*2\right	*	*	*2\right	*	*	*	*	*	*2\right	*	*	*2\right	*	*2\right	*
!LO:TX:b:t=Gloria	!	!	!LO:TX:b:B:t=Gloria	!	!LO:TX:b:t=Gloria&colon;	!	!	!	!	!	!	!	!	!	!	!	!	!	!LO:TX:b:B:t=Gloria	!	!	!
!	!	!	!LO:TX:a:B:t=Vivace Tu	!	!LO:TX:a:t=Tutti	!	!	!	!	!LO:TX:a:t=Tutt Vivace	!	!	!LO:TX:a:B:t=Tut Vivace	!	!	!LO:TX:a:t=Vivace Tutti	!	!	!LO:TX:a:B:t=Vivace Tutti	!	!LO:TX:a:B:t=Vivace Tutti	!
1.F	.	.	2.a/	.	2.ff\	.	2.F\	Glo-	.	2.c\	Glo-	.	2.f\	Glo-	.	2.a\	Glo-	.	2.f\	.	2.a\	.
.	.	.	4cc\	.	4cc\	.	4F\	-ri-	.	4c\	-ri-	.	4f\	-ri-	.	4a\	-ri-	.	4f\	.	4a\	.
.	.	.	2ff\	.	2aa\	.	2F\	-a	.	2c\	-a	.	2f\	-a	.	2a,<\	-a,	.	2f\	.	2a\	.
!	!	!	!LO:LB:g=original	!	!	!	!	!	!	!	!	!	!	!	!	!	!	!	!	!	!	!
=60	=60	=60	=60	=60	=60	=60	=60	=60	=60	=60	=60	=60	=60	=60	=60	=60	=60	=60	=60	=60	=60	=60
*2\right	*	*	*	*	*	*	*	*	*	*	*	*	*	*	*	*	*	*	*	*	*	*
2c\	5_ 3_	.	1ee	.	1gg	.	(2c\	Pa-	.	1c	Pa-	.	1e	Pa-	.	1g	Pa-	.	1c	.	1g	.
!LO:TX:b:t=Tutti	!	!	!	!	!	!	!	!	!	!	!	!	!	!	!	!	!	!	!	!	!	!
2B-\	.	.	.	.	.	.	2B-\)	-tri	.	.	.	.	.	.	.	.	.	.	.	.	.	.
2A\	6	.	2ff\	.	2aa\	.	2A\	.	.	2c\	-tri	.	2f\	-tri	.	2a,<\	-tri,	.	2f\	.	2a\	.
!LO:LB:g=original	!	!	!	!	!	!	!	!	!	!	!	!	!	!	!	!	!	!	!	!	!	!
=61	=61	=61	=61	=61	=61	=61	=61	=61	=61	=61	=61	=61	=61	=61	=61	=61	=61	=61	=61	=61	=61	=61
2B-\	.	.	2dd\	.	2ff\	.	2B-\	et	.	2d\	et	.	2f\	et	.	2f/	et	.	2F/	.	2f\	.
2G\	7	.	2.ff\	.	2.gg\	.	2G\	Fi-	.	2B-\	Fi-	.	2.f\	Fi-	.	2.g/	Fi-	.	2.c/	.	2.g\	.
2c\	.	.	.	.	.	.	2c\	-li-	.	2c\	-li-	.	.	.	.	.	.	.	.	.	.	.
.	.	.	4ee\	.	4gg\	.	.	.	.	.	.	.	4e\	-li-	.	4g/	-li-	.	4c/	.	4g\	.
=62	=62	=62	=62	=62	=62	=62	=62	=62	=62	=62	=62	=62	=62	=62	=62	=62	=62	=62	=62	=62	=62	=62
1F	.	.	2ff\	.	2aa\	.	2F\	-o	.	2c\	-o	.	2f\	-o	.	2a,<\	-o,	.	2f\	.	2a\	.
.	.	.	2cc\	.	2ff\	.	2F\	et	.	2A\	et	.	2f\	et	.	2cc\	et	.	2a\	.	2cc\	.
2E\	6	.	2ee\	.	2gg\	.	2E\	ſpi-	.	2c\	ſpi-	.	2g\	ſpi-	.	2cc\	Spi-	.	2g\	.	2cc\	.
=63	=63	=63	=63	=63	=63	=63	=63	=63	=63	=63	=63	=63	=63	=63	=63	=63	=63	=63	=63	=63	=63	=63
1D	7	.	2.a/	.	2.ff\	.	2.D/	-ri-	.	2.c\	-ri-	.	2.f\	-ri-	.	2.dd\	-ri-	.	2.a\	.	2.cc\	.
.	6\	.	4dd\	.	4ff\	.	4D/	-tu-	.	4Bn\	-tu-	.	4f\	-tu-	.	4dd\	-tu-	.	4f\	.	4bX\	.
!	!	!	!	!	!	!	!	!	!	!	!	!	!	!	!	!LO:LB:g=original	!	!	!	!	!	!
2C/	.	.	2ee\	.	2gg\	.	2C/	-i	.	2c\	-i	.	2g\	-i	.	2ee\	-i,	.	2g\	.	2cc\	.
=64	=64	=64	=64	=64	=64	=64	=64	=64	=64	=64	=64	=64	=64	=64	=64	=64	=64	=64	=64	=64	=64	=64
2G\	n	.	4dd\	.	4gg\	.	(2G\	ſan-	.	(2Bn\	ſan-	.	1.g	ſan-	.	1.dd	San-	.	2g\	.	2bX\	.
.	.	.	4bn/	.	4dd\	.	.	.	.	.	.	.	.	.	.	.	.	.	.	.	.	.
2F\	.	.	4g/	.	4bn\	.	2F\)	.	.	2A\	.	.	.	.	.	.	.	.	4g\	.	2a\	.
.	.	.	4bn/	.	4dd\	.	.	.	.	.	.	.	.	.	.	.	.	.	4g\	.	.	.
2G\	.	.	4g/	.	4bn\	.	2G\	.	.	2B\)	.	.	.	.	.	.	.	.	2g\	.	2bnX\	.
.	.	.	4dd\	.	4gg\	.	.	.	.	.	.	.	.	.	.	.	.	.	.	.	.	.
!	!	!	!	!	!LO:LB:g=original	!	!	!	!	!	!	!	!	!	!	!	!	!	!	!	!	!
=65	=65	=65	=65	=65	=65	=65	=65	=65	=65	=65	=65	=65	=65	=65	=65	=65	=65	=65	=65	=65	=65	=65
2C/	.	.	2ee\	.	2gg\	.	2C/	-cto	.	2c\	-cto	.	2g,<\	-cto	.	2ee,<\	-cto,	.	2g\	.	2cc\	.
2c\	.	.	2ee\	.	2ccc\	.	2c\	ſi-	.	2G/	ſi-	.	2e\	ſi-	.	2cc\	Si-	.	2c/	.	2c/	.
2F\	.	.	2aa\	.	2ccc\	.	2F\	-cut	.	2A/	-cut	.	2f\	-cut	.	2cc,<\	-cut	.	2c/	.	2c/	.
!	!	!	!	!	!	!	!LO:LB:g=original	!	!	!	!	!	!LO:LB:g=original	!	!	!	!	!	!	!	!LO:LB:g=original	!
=66	=66	=66	=66	=66	=66	=66	=66	=66	=66	=66	=66	=66	=66	=66	=66	=66	=66	=66	=66	=66	=66	=66
1c	.	.	4ee\	.	4ccc\	.	1c	e-	.	1G	e-	.	1e	e-	.	1cc	e-	.	2c/	.	2c/	.
.	.	.	4cc\	.	4gg\	.	.	.	.	.	.	.	.	.	.	.	.	.	.	.	.	.
.	.	.	4gg\	.	4ee\	.	.	.	.	.	.	.	.	.	.	.	.	.	4c/	.	4c/	.
.	.	.	4ee\	.	4gg\	.	.	.	.	.	.	.	.	.	.	.	.	.	4c/	.	4c/	.
2C/	.	.	4cc\	.	4cc\	.	2c\	-rat	.	2G/	-rat	.	2e\	-rat	.	2cc,<\	-rat,	.	4c/	.	4c/	.
.	.	.	4ee\	.	4ccc\	.	.	.	.	.	.	.	.	.	.	.	.	.	4c/	.	4c/	.
!	!	!	!	!	!	!	!	!	!	!LO:LB:g=original	!	!	!	!	!	!	!	!	!	!	!	!
=67	=67	=67	=67	=67	=67	=67	=67	=67	=67	=67	=67	=67	=67	=67	=67	=67	=67	=67	=67	=67	=67	=67
2F\	.	.	2ff\	.	1ccc	.	(2F\	in	.	2A/	in	.	1f	in	.	1cc	in	.	2c/	.	2c/	.
2D\	7	.	2ff\	.	.	.	2D/)	.	.	1d	prin-	.	.	.	.	.	.	.	2ra	.	2ra	.
2G\	n	.	2dd\	.	2bbn\	.	2G\	prin-	.	.	.	.	2d\	prin-	.	2bn\	prin-	.	2ra	.	2ra	.
!	!	!	!LO:LB:g=original	!	!	!	!	!	!	!	!	!	!	!	!	!	!	!	!	!	!	!
=68	=68	=68	=68	=68	=68	=68	=68	=68	=68	=68	=68	=68	=68	=68	=68	=68	=68	=68	=68	=68	=68	=68
1.C	.	.	2ee\	.	2ccc\	.	2.C/	-ci-	.	2.e\	-ci-	.	2.e\	-ci-	.	2.cc\	-ci-	.	1.r	.	1.r	.
.	.	.	4cc\	.	4gg\	.	.	.	.	.	.	.	.	.	.	.	.	.	.	.	.	.
.	.	.	4dd\	.	4ff\	.	4C/	-pi-	.	4d\	-pi-	.	4f\	-pi-	.	4dd\	-pi-	.	.	.	.	.
.	.	.	2ee\	.	2gg\	.	2C/	-o	.	2c\	-o	.	2g\	-o	.	2ee,<\	-o,	.	.	.	.	.
=69	=69	=69	=69	=69	=69	=69	=69	=69	=69	=69	=69	=69	=69	=69	=69	=69	=69	=69	=69	=69	=69	=69
2F\	.	.	2cc/	.	2aa\	.	2F\	et	.	2A/	et	.	2a\	et	.	2cc\	et	.	2a\	.	2cc\	.
2G\	6\	.	2b-/	.	2gg\	.	2G\	nunc	.	2B-\	nunc	.	2g\	nunc	.	2b-,<\	nunc,	.	2g\	.	2b-\	.
2A\	6	.	2a/	.	2ff\	.	2A\	et	.	2c\	et	.	2f\	et	.	2a\	et	.	2f\	.	2a\	.
!	!	!	!	!	!	!	!	!	!	!	!	!	!	!	!	!	!	!	!LO:PB:g=original	!	!	!
=70	=70	=70	=70	=70	=70	=70	=70	=70	=70	=70	=70	=70	=70	=70	=70	=70	=70	=70	=70	=70	=70	=70
2B-\	.	.	2dd\	.	2ff\	.	2B-\	ſem-	.	2B-\	ſem-	.	2f\	ſem-	.	2dd\	Sem-	.	2b-\	.	2dd\	.
2F\	.	.	2cc\	.	2aa\	.	2F\	-per	.	2A\	-per	.	2a\	-per	.	2cc,<\	-per,	.	2a\	.	2cc\	.
2B-\	.	.	2dd\	.	2ff\	.	2B-\	et	.	2B-\	et	.	2f\	et	.	2dd\	et	.	2b-\	.	2dd\	.
=71	=71	=71	=71	=71	=71	=71	=71	=71	=71	=71	=71	=71	=71	=71	=71	=71	=71	=71	=71	=71	=71	=71
2A\	6	.	2cc\	.	2ff\	.	2A\	in	.	2F/	in	.	2f\	in	.	2cc\	in	.	2f\	.	2cc\	.
2G\	7	.	2dd\	.	2ff\	.	2G\	ſae-	.	2B-\	ſae-	.	2f\	ſae-	.	2b-\	Sae-	.	4g\	.	4b-\	.
.	.	.	.	.	.	.	.	.	.	.	.	.	.	.	.	.	.	.	4b-\	.	4dd\	.
2C/	.	.	2cc\	.	2ee\	.	4.G\	-cu-	.	4.G/	-cu-	.	4.f\	-cu-	.	4.b-\	-cu-	.	4a\	.	4cc\	.
.	.	.	.	.	.	.	.	.	.	.	.	.	.	.	.	.	.	.	4g\	.	4b-\	.
.	.	.	.	.	.	.	8c\	-la	.	8G/	-la	.	8e\	-la	.	8cc\	-la,	.	.	.	.	.
!	!	!	!	!	!	!	!	!	!	!	!	!	!	!	!	!LO:LB:g=original	!	!	!	!	!	!
=72	=72	=72	=72	=72	=72	=72	=72	=72	=72	=72	=72	=72	=72	=72	=72	=72	=72	=72	=72	=72	=72	=72
2.F\	.	.	2cc\	.	2ff\	.	2.F\	ſae-	.	2.A\	Sae-	.	2.f\	ſae-	.	2.cc\	ſae-	.	2a\	.	2cc\	.
.	.	.	4aa\	.	4ccc\	.	.	.	.	.	.	.	.	.	.	.	.	.	4a\	.	4cc\	.
4G\	6\	.	4gg\	.	4bb-\	.	4G\	-cu-	.	4B-\	-cu-	.	4e\	-cu-	.	4b-\	-cu-	.	4g\	.	4b-\	.
!	!	!	!	!	!	!	!	!	!	!	!	!	!	!	!	!	!	!	!LO:TX:a:t=P:problem:po tym takcie wymazany takt	!	!	!
2A\	.	.	2ff\	.	2aa\	.	2A\	-lo-	.	2c\	-lo-	.	2f\	-lo-	.	2a\	-lo-	.	2f\	.	2a\	.
!	!	!	!	!	!LO:LB:g=original	!	!LO:LB:g=original	!	!	!	!	!	!	!	!	!	!	!	!	!	!	!
=73	=73	=73	=73	=73	=73	=73	=73	=73	=73	=73	=73	=73	=73	=73	=73	=73	=73	=73	=73	=73	=73	=73
2B-\	.	.	2ff\	.	2gg\	.	2B-\	-rum	.	(<2d\	-ru(m)	.	2f\	-rum	.	2g/	-rum	.	2g\	.	2g\	.
2c\	.	.	2ff\	.	2aa\	.	2c\	A-	.	2c\)	A-	.	(2f\	A-	.	1gT	A-	.	4c/	.	2a\	.
.	.	.	.	.	.	.	.	.	.	.	.	.	.	.	.	.	.	.	4A/	.	.	.
2C/	.	.	2ee\	.	2ggT\	.	2C/	.	.	2G/	.	.	2e\)	.	.	.	.	.	4F/	.	4.g\	.
.	.	.	.	.	.	.	.	.	.	.	.	.	.	.	.	.	.	.	4c/	.	.	.
.	.	.	.	.	.	.	.	.	.	.	.	.	.	.	.	.	.	.	.	.	8f\	.
!LO:LB:g=original	!	!	!	!	!	!	!	!	!	!	!	!	!	!	!	!	!	!	!	!	!	!
=74	=74	=74	=74	=74	=74	=74	=74	=74	=74	=74	=74	=74	=74	=74	=74	=74	=74	=74	=74	=74	=74	=74
!LO:TX:a:t=Solo	!	!	!	!	!	!	!	!	!	!	!	!	!	!	!	!	!	!	!	!	!	!
2F\	.	.	2ff\	.	2ff\	.	2F\	-men	.	2A/	-men	.	2f\	-men	.	2f,</	-men,	.	2A/	.	2f\	.
2r	.	.	2r	.	2r	.	2r	.	.	2r	.	.	2r	.	.	2cc\	a-	.	2ra	.	2r	.
2F\	.	.	2r	.	2r	.	2r	.	.	2r	.	.	2r	.	.	2cc,<\	-men,	.	2ra	.	2r	.
!	!	!	!	!	!	!	!	!	!	!	!	!	!LO:LB:g=original	!	!	!	!	!	!	!	!	!
=75	=75	=75	=75	=75	=75	=75	=75-	=75	=75	=75-	=75	=75	=75	=75	=75	=75	=75	=75	=75	=75	=75	=75
!	!	!	!LO:N:vis=00	!	!LO:N:vis=00	!	!LO:N:vis=00	!	!	!LO:N:vis=0	!	!	!	!	!	!	!	!	!LO:N:vis=00	!	!LO:N:vis=00	!
2BB-/	.	.	00.r	.	00.r	.	00.r	.	.	0.r	.	.	1.r	.	.	4dd\	a-	.	00.r	.	00.r	.
.	.	.	.	.	.	.	.	.	.	.	.	.	.	.	.	4ee-X\	.	.	.	.	.	.
2r	.	.	.	.	.	.	.	.	.	.	.	.	.	.	.	4dd\	.	.	.	.	.	.
.	.	.	.	.	.	.	.	.	.	.	.	.	.	.	.	4cc\	.	.	.	.	.	.
2BB-/	.	.	.	.	.	.	.	.	.	.	.	.	.	.	.	4b-\	.	.	.	.	.	.
.	.	.	.	.	.	.	.	.	.	.	.	.	.	.	.	4dd\	.	.	.	.	.	.
=76	=76	=76	=76	=76	=76	=76	=76	=76	=76	=76	=76	=76	=76-	=76	=76	=76	=76	=76	=76	=76	=76	=76
2FF/	.	.	.	.	.	.	.	.	.	.	.	.	2r	.	.	4cc\	.	.	.	.	.	.
.	.	.	.	.	.	.	.	.	.	.	.	.	.	.	.	4dd\	.	.	.	.	.	.
!	!	!	!	!	!	!	!	!	!	!	!	!	!LO:TX:a:t=Solo	!	!	!	!	!	!	!	!	!
2r	.	.	.	.	.	.	.	.	.	.	.	.	2f\	A-	.	4cc\	.	.	.	.	.	.
.	.	.	.	.	.	.	.	.	.	.	.	.	.	.	.	4b-\	.	.	.	.	.	.
2FF/	.	.	.	.	.	.	.	.	.	.	.	.	2f\	-men	.	4a\	.	.	.	.	.	.
.	.	.	.	.	.	.	.	.	.	.	.	.	.	.	.	4cc\	.	.	.	.	.	.
=77	=77	=77	=77	=77	=77	=77	=77	=77	=77	=77	=77	=77	=77	=77	=77	=77	=77	=77	=77	=77	=77	=77
2C/	7	.	.	.	.	.	.	.	.	1.r	.	.	4g\	A-	.	4b-\	.	.	.	.	.	.
.	.	.	.	.	.	.	.	.	.	.	.	.	4a\	.	.	4cc\	.	.	.	.	.	.
2r	.	.	.	.	.	.	.	.	.	.	.	.	4g\	.	.	4b-\	.	.	.	.	.	.
.	.	.	.	.	.	.	.	.	.	.	.	.	4f\	.	.	4a\	.	.	.	.	.	.
2C/	7	.	.	.	.	.	.	.	.	.	.	.	4e\	.	.	4g/	.	.	.	.	.	.
.	.	.	.	.	.	.	.	.	.	.	.	.	4g\	.	.	4b-\	.	.	.	.	.	.
!	!	!	!	!	!	!	!	!	!	!LO:LB:g=original	!	!	!	!	!	!	!	!	!	!	!	!
=78	=78	=78	=78	=78	=78	=78	=78	=78	=78	=78	=78	=78	=78	=78	=78	=78	=78	=78	=78	=78	=78	=78
2F\	.	.	.	.	.	.	.	.	.	2r	.	.	4f\	.	.	4a\	.	.	.	.	.	.
.	.	.	.	.	.	.	.	.	.	.	.	.	4g\	.	.	4b-\	.	.	.	.	.	.
2r	.	.	.	.	.	.	.	.	.	2c\	A-	.	4f\	.	.	4a\	.	.	.	.	.	.
.	.	.	.	.	.	.	.	.	.	.	.	.	4e\	.	.	4g/	.	.	.	.	.	.
2F\	.	.	.	.	.	.	.	.	.	2c\	-men	.	4d\	.	.	4f/	.	.	.	.	.	.
.	.	.	.	.	.	.	.	.	.	.	.	.	4f\	.	.	4a\	.	.	.	.	.	.
=79	=79	=79	=79	=79	=79	=79	=79	=79	=79	=79	=79	=79	=79	=79	=79	=79	=79	=79	=79	=79	=79	=79
2BB-/	.	.	1.r	.	1.r	.	1.r	.	.	4d\	A-	.	2d,<\	-men	.	4b-\	.	.	1.r	.	1.r	.
.	.	.	.	.	.	.	.	.	.	4e-X\	.	.	.	.	.	4cc\	.	.	.	.	.	.
2r	.	.	.	.	.	.	.	.	.	4d\	.	.	2f\	a-	.	4b-\	.	.	.	.	.	.
.	.	.	.	.	.	.	.	.	.	4c\	.	.	.	.	.	4a\	.	.	.	.	.	.
2BB-/	.	.	.	.	.	.	.	.	.	4B-\	.	.	2f\	-men	.	4g/	.	.	.	.	.	.
.	.	.	.	.	.	.	.	.	.	4d\	.	.	.	.	.	4b-\	.	.	.	.	.	.
!	!	!	!	!	!	!	!	!	!	!	!	!	!	!	!	!LO:LB:g=original	!	!	!	!	!	!
=80	=80	=80	=80	=80	=80	=80	=80-	=80	=80	=80	=80	=80	=80	=80	=80	=80	=80	=80	=80	=80	=80	=80
!	!	!	!LO:N:vis=2	!	!	!	!	!	!	!	!	!	!	!	!	!	!	!	!	!	!	!
2FF/	.	.	4r	.	2r	.	2r	.	.	4c\	.	.	4a\	A-	.	2a,<\	-men,	.	2ra	.	2r	.
!	!	!	!LO:LB:g=original	!	!	!	!	!	!	!	!	!	!	!	!	!	!	!	!	!	!	!
!	!	!	!LO:N:vis=2	!	!	!	!	!	!	!	!	!	!	!	!	!	!	!	!	!	!	!
.	.	.	4r	.	.	.	.	.	.	4d\	.	.	4b-\	.	.	.	.	.	.	.	.	.
!LO:TX:a:t=Tutti	!	!	!	!	!	!	!	!	!	!	!	!	!	!	!	!LO:TX:a:t=Tutti	!	!	!	!	!	!
2F\	.	.	2cc\	.	2aa\	.	2F\	A-	.	4c\	.	.	4a\	.	.	2cc\	a-	.	2F/	.	2F/	.
.	.	.	.	.	.	.	.	.	.	4B-\	.	.	4g\	.	.	.	.	.	.	.	.	.
2F\	.	.	2cc\	.	2aa\	.	2F\	-men	.	4A\	.	.	4f\	.	.	2cc,<\	-men	.	2F/	.	2F/	.
.	.	.	.	.	.	.	.	.	.	4c\	.	.	4a\	.	.	.	.	.	.	.	.	.
!	!	!	!	!	!	!	!	!	!	!	!	!	!	!	!	!	!	!	!	!	!LO:LB:g=original	!
=81	=81	=81	=81	=81	=81	=81	=81	=81	=81	=81	=81	=81	=81	=81	=81	=81	=81	=81	=81	=81	=81	=81
2B-\	.	.	2dd\	.	2ff\	.	4B-\	A-	.	2B-,<\	-men	.	2f,<\	-men	.	4dd\	a-	.	2F/	.	2F/	.
.	.	.	.	.	.	.	4c\	.	.	.	.	.	.	.	.	4ee-X\	.	.	.	.	.	.
2r	.	.	2b-/	.	2dd\	.	4B-\	.	.	2B-\	a-	.	2f\	A-	.	4dd\	.	.	4F/	.	4F/	.
.	.	.	.	.	.	.	4A\	.	.	.	.	.	.	.	.	4cc\	.	.	4F/	.	4F/	.
2G\	.	.	2dd\	.	2gg\	.	4G\	.	.	2B-\	-men	.	2g\	-men	.	4b-\	.	.	4F/	.	4F/	.
!	!	!	!	!	!	!	!LO:TX:a:t=b	!	!	!	!	!	!	!	!	!	!	!	!	!	!	!
.	.	.	.	.	.	.	4B-\	.	.	.	.	.	.	.	.	4dd\	.	.	4F/	.	4F/	.
!	!	!	!	!	!	!	!	!	!	!	!	!	!	!	!	!	!	!	!LO:LB:g=original	!	!	!
=82	=82	=82	=82	=82	=82	=82	=82	=82	=82	=82	=82	=82	=82	=82	=82	=82	=82	=82	=82	=82	=82	=82
2A\	6	.	4cc\	.	2ff\	.	4A\	.	.	(1c	A-	.	1.f	A-	.	4cc\	.	.	2F/	.	2F/	.
.	.	.	4dd\	.	.	.	4B-\	.	.	.	.	.	.	.	.	4dd\	.	.	.	.	.	.
2r	.	.	4cc\	.	4ff\	.	4A\	.	.	.	.	.	.	.	.	4cc\	.	.	4F/	.	4F/	.
.	.	.	4dd\	.	4bb-\	.	4G\	.	.	.	.	.	.	.	.	4b-\	.	.	4F/	.	4F/	.
2F\	.	.	4a/	.	4aa\	.	4F\	.	.	2f\)	.	.	.	.	.	4a\	.	.	4F/	.	4F/	.
.	.	.	4cc\	.	4ff\	.	4A\	.	.	.	.	.	.	.	.	4cc\	.	.	4F/	.	4F/	.
=83	=83	=83	=83	=83	=83	=83	=83	=83	=83	=83	=83	=83	=83	=83	=83	=83	=83	=83	=83	=83	=83	=83
2G\	7	.	2b-/	.	2ff\	.	4G\	.	.	2d,<\	-men	.	2f\	-men	.	2b-,<\	-men,	.	2F/	.	2F/	.
.	.	.	.	.	.	.	4A\	.	.	.	.	.	.	.	.	.	.	.	.	.	.	.
!	!	!	!	!	!	!	!	!	!	!	!	!	!LO:LB:g=original	!	!	!	!	!	!	!	!	!
2r	.	.	2b-/	.	2ee\	.	4G\	.	.	2e\	a-	.	2e\	A-	.	2b-\	a-	.	2c/	.	2c/	.
.	.	.	.	.	.	.	4F\	.	.	.	.	.	.	.	.	.	.	.	.	.	.	.
2C/	7	.	2ee\	.	2gg\	.	4E\	.	.	2c,<\	-men	.	2g\	-men	.	2cc,<\	-men,	.	2g\	.	2cc\	.
.	.	.	.	.	.	.	4C/	.	.	.	.	.	.	.	.	.	.	.	.	.	.	.
=84	=84	=84	=84	=84	=84	=84	=84	=84	=84	=84	=84	=84	=84	=84	=84	=84	=84	=84	=84	=84	=84	=84
2.F\	.	.	2.cc\	.	2.aa\	.	2.F\	.	.	(2.A/	A-	.	(2.a\	A-	.	(2.cc\	a-	.	4a\	.	4cc\	.
.	.	.	.	.	.	.	.	.	.	.	.	.	.	.	.	.	.	.	4b-\	.	4dd\	.
.	.	.	.	.	.	.	.	.	.	.	.	.	.	.	.	.	.	.	4a\	.	4cc\	.
4G\	.	.	4b-/	.	4gg\	.	4G\	.	.	4B-\)	.	.	4g\	.	.	4b-\)	.	.	4g\	.	4b-\	.
2A\	.	.	2a/	.	2ff\	.	2A\	.	.	2c\	.	.	2f\)	.	.	2a,<\	-men,	.	4f\	.	4a\	.
.	.	.	.	.	.	.	.	.	.	.	.	.	.	.	.	.	.	.	4a\	.	4cc\	.
=85	=85	=85	=85	=85	=85	=85	=85	=85	=85	=85	=85	=85	=85	=85	=85	=85	=85	=85	=85	=85	=85	=85
2B-\	6	.	2dd\	.	2gg\	.	2B-,<\	-men	.	2d\	-men	.	2g\	-men	.	2g/	a-	.	4g\	.	4b-\	.
.	5	.	.	.	.	.	.	.	.	.	.	.	.	.	.	.	.	.	4f\	.	4a\	.
!	!	!	!	!	!	!	!	!	!	!LO:LB:g=original	!	!	!	!	!	!	!	!	!	!	!	!
2c\	4	.	2ff\	.	2gg\	.	2c\	A-	.	1c	A-	.	(2f\	A-	.	1gT	.	.	4f\	.	4a\	.
.	3	.	.	.	.	.	.	.	.	.	.	.	.	.	.	.	.	.	4c/	.	4g\	.
2C/	.	.	2ee\	.	2ccc\	.	2C/	.	.	.	.	.	2e\)	.	.	.	.	.	2c/	.	4.g\	.
.	.	.	.	.	.	.	.	.	.	.	.	.	.	.	.	.	.	.	.	.	8f\	.
!LO:LB:g=original	!	!	!	!	!LO:LB:g=original	!	!	!	!	!	!	!	!	!	!	!	!	!	!	!	!	!
=86	=86	=86	=86	=86	=86	=86	=86	=86	=86	=86	=86	=86	=86	=86	=86	=86	=86	=86	=86	=86	=86	=86
2F\	.	.	4ff\	.	4aa\	.	2F,<\	-men	.	2c\	-men	.	2f,<\	-men	.	2f,</	-men,	.	2A/	.	2f\	.
.	.	.	4a/	.	4ff\	.	.	.	.	.	.	.	.	.	.	.	.	.	.	.	.	.
!	!	!	!	!	!	!	!LO:LB:g=original	!	!	!	!	!	!	!	!	!	!	!	!	!	!	!
*	*	*	*	*	*	*	*	*ij	*	*	*ij	*	*	*	*	*	*	*	*	*	*	*
2BB-/	.	.	4b-/	.	4dd\	.	2B-\	A-	.	2B-\	A-	.	2f\	A-	.	2dd\	a-	.	2F/	.	2F/	.
.	.	.	4dd\	.	4ff\	.	.	.	.	.	.	.	.	.	.	.	.	.	.	.	.	.
2AA/	6	.	4ff\	.	4aa\	.	2A\	-men	.	2c\	-men	.	2f\	-men	.	2cc\	-men	.	2F/	.	2F/	.
*	*	*	*	*	*	*	*	*Xij	*	*	*Xij	*	*	*	*	*	*	*	*	*	*	*
.	.	.	4a/	.	4ff\	.	.	.	.	.	.	.	.	.	.	.	.	.	.	.	.	.
=87	=87	=87	=87	=87	=87	=87	=87	=87	=87	=87	=87	=87	=87	=87	=87	=87	=87	=87	=87	=87	=87	=87
1.BB-	.	.	4b-/	.	4dd\	.	1.B-	A-	.	1.B-	A-	.	1.f	A-	.	1.dd	a-	.	4F/	.	4F/	.
.	.	.	4dd\	.	4ff\	.	.	.	.	.	.	.	.	.	.	.	.	.	8F/L	.	8F/L	.
.	.	.	.	.	.	.	.	.	.	.	.	.	.	.	.	.	.	.	8F/J	.	8F/J	.
.	.	.	4ff\	.	4aa\	.	.	.	.	.	.	.	.	.	.	.	.	.	4F/	.	4F/	.
.	.	.	4dd\	.	4ff\	.	.	.	.	.	.	.	.	.	.	.	.	.	4F/	.	4F/	.
.	.	.	4b-/	.	4dd\	.	.	.	.	.	.	.	.	.	.	.	.	.	4F/	.	4F/	.
.	.	.	4dd\	.	4ff\	.	.	.	.	.	.	.	.	.	.	.	.	.	4F/	.	4F/	.
!	!	!	!LO:LB:g=original	!	!	!	!	!	!	!	!	!	!	!	!	!	!	!	!	!	!	!
=88	=88	=88	=88	=88	=88	=88	=88	=88	=88	=88	=88	=88	=88	=88	=88	=88	=88	=88	=88	=88	=88	=88
1.FF;	.	.	1.ff;	.	1aa;	.	1.F;	-men	.	1.A;;	-men	.	1.f;;	-men	.	1.cc;;	-men	.	1.F;	.	1F;	.
!	!	!	!	!	!	!	!	!	!	!	!	!	!	!	!	!	!	!	!LO:TX:a:t=P:problem:podwójna kreska taktowa z obustronną repetycją	!	!LO:TX:a:t=P:problem:podwójna kreska taktowa z obustronną repetycją	!
.	.	.	.	.	2ryy	.	.	.	.	.	.	.	.	.	.	.	.	.	.	.	2ryy	.
==	==	==	==	==	==	==	==	==	==	==	==	==	==	==	==	==	==	==	==	==	==	==
*-	*-	*-	*-	*-	*-	*-	*-	*-	*-	*-	*-	*-	*-	*-	*-	*-	*-	*-	*-	*-	*-	*-
!!!system-decoration: [g1][g2][g3]s9
!!!RDF**kern: < = below
!!!ENC: Marta Lawrence
!!!END: 2020-11-25
!!!ENC: Andrzej Gręziak
!!!END: 2020-05-10
